!!!!SEGMENT: pl-wtm--r-1555--001_stefani-jozef--msza-no-14-kyrie.krn
!!!id: 18xx:1820
!!!COM: Stefani, Józef
!!!COM-rism: pe30024097
!!!CDT: 1800/04/16-1876/03/19
!!!CNT: Polish
!!!OTL: Msza No 14 – Kyrie
!!!PDT:
!!!SMS-siglum: PL-Wtm
!!!SMS-shelfmark: R 1555
!!!NIFC-rismID: 1001115185
!!!URL-scan: http://repozytorium.nifc.pl/skany/pl-wtm-nut--r1555
!!!ONB-nifc: UWAGA: części Mszy: 1. Kyrie, 2. Gloria, 3. Graduale, 4. Credo, 5. Offertorium, 6. Sanctus, 7. Benedictus, 8. Agnus Dei, 9. Dona nobis
!!!SMS-variant:
!!!SMS-altvar:
**kern	**dynam	**kern	**dynam	**kern	**dynam	**kern	**dynam	**kern	**dynam	**kern	**dynam	**kern	**text	**kern	**text	**kern	**text	**kern	**text	**kern	**dynam	**kern	**dynam	**kern	**dynam	**kern	**dynam	**kern	**dynam	**kern	**dynam	**kern	**dynam	**kern	**dynam	**kern	**dynam
*part19	*part19	*part18	*part18	*part17	*part17	*part16	*part16	*part15	*part15	*part14	*part14	*part13	*part13	*part12	*part12	*part11	*part11	*part10	*part10	*part9	*part9	*part8	*part8	*part7	*part7	*part6	*part6	*part5	*part5	*part4	*part4	*part3	*part3	*part2	*part2	*part1	*part1
*staff19	*	*staff18	*	*staff17	*	*staff16	*	*staff15	*	*staff14	*	*staff13	*staff13	*staff12	*staff12	*staff11	*staff11	*staff10	*staff10	*staff9	*	*staff8	*	*staff7	*	*staff6	*	*staff5	*	*staff4	*	*staff3	*	*staff2	*	*staff1	*
*I"Timpani C.g	*	*I"C. Baſsi	*	*I"Violoncelli	*	*I"Viole	*	*I"Violino	*	*I"Violini	*	*I"Baſsi	*	*I"Tenori	*	*I"Alto	*	*I"Soprani	*	*I"Trombone	*	*I"Trombone	*	*I"Tromboni	*	*I"Trombe in C	*	*I"Fagotti	*	*I"Corni in C	*	*I"Clarinetti in C	*	*I"Oboe	*	*I"Flautti	*
*I'Timp.	*	*I'C-b.	*	*I'Vc.	*	*I'Va	*	*I'Vn II	*	*I'Vn I	*	*I'B.	*	*I'T.	*	*I'A.	*	*I'S	*	*I'Tr-ne III	*	*I'Tr-ne II	*	*I'Tr-ne I	*	*I'Tr-ba in C	*	*I'Fag.	*	*I'C. in C	*	*I'Cl. in C	*	*I'Ob.	*	*I'Fl.	*
*clefF1	*	*clefF4	*	*clefF4	*	*clefC3	*	*clefG2	*	*clefG2	*	*clefF4	*	*clefC4	*	*clefC3	*	*clefG2	*	*clefF4	*	*clefC4	*	*clefC3	*	*clefG2	*	*clefF4	*	*clefG2	*	*clefG2	*	*clefG2	*	*clefG2	*
*	*	*Trd0c0	*	*	*	*	*	*	*	*	*	*	*	*	*	*	*	*	*	*	*	*	*	*	*	*	*	*	*	*	*	*	*	*	*	*	*
*k[]	*	*k[f#]	*	*k[f#]	*	*k[f#]	*	*k[f#]	*	*k[f#]	*	*k[f#]	*	*k[f#]	*	*k[f#]	*	*k[f#]	*	*k[f#]	*	*k[f#]	*	*k[f#]	*	*k[f#]	*	*k[f#]	*	*k[f#]	*	*k[f#]	*	*k[f#]	*	*k[f#]	*
*M6/8	*	*M6/8	*	*M6/8	*	*M6/8	*	*M6/8	*	*M6/8	*	*M6/8	*	*M6/8	*	*M6/8	*	*M6/8	*	*M6/8	*	*M6/8	*	*M6/8	*	*M6/8	*	*M6/8	*	*M6/8	*	*M6/8	*	*M6/8	*	*M6/8	*
*stria1	*	*	*	*	*	*	*	*	*	*	*	*	*	*	*	*	*	*	*	*	*	*	*	*	*	*	*	*	*	*	*	*	*	*	*	*	*
!LO:SIC:s=8G\	!	!	!LO:DY:rj:b	!	!	!	!LO:DY:rj	!	!	!	!LO:DY:rj	!	!	!	!	!	!	!	!	!	!LO:DY:rj	!	!	!	!	!	!	!	!	!	!	!	!LO:DY:rj	!	!LO:DY:a	!LO:TX:a:t=Andantino	!
8Re\	.	8GG^>/	f	8r	.	8g\ 8G^\	f	8b^\	.	8gg\	f	8r	.	8r	.	8r	.	8r	.	8G\ 8GG^\	f	8B^\	.	8g\	.	8g/ 8B^>/	.	8G\ 8GG^\	.	8gg\ 8g^\	.	8gg\ 8b^\	f	8bb^\	f	8ggg\	.
=1	=1	=1	=1	=1	=1	=1	=1	=1	=1	=1	=1	=1	=1	=1	=1	=1	=1	=1	=1	=1	=1	=1	=1	=1	=1	=1	=1	=1	=1	=1	=1	=1	=1	=1	=1	=1	=1
!LO:SIC:s=4c/	!	!	!	!	!	!	!	!	!	!	!	!	!	!	!	!	!	!	!	!	!	!	!	!	!	!LO:SIC:v:t=wykreślony akcent	!	!	!	!	!	!	!	!	!	!LO:TX:a:t=col Vo. I0. 8va	!
4Re/	.	4C^>/	.	2.r	.	4g\ 4G\	.	4cc\	.	4ee\	.	2.r	.	2.r	.	2.r	.	2.r	.	4G\ 4C\	.	4c\	.	4e\	.	4e/ 4c/	.	4c\ 4C\	.	4gg\ 4g\	.	4ee\ 4cc\	.	4ccc\	.	4eee\yy	.
!LO:SIC:s=8G\	!	!	!	!	!	!	!	!	!	!	!	!	!	!	!	!	!	!	!	!	!	!	!	!	!	!	!	!	!	!	!	!	!	!	!	!	!
8Re\	.	8GG^>/	.	.	.	8g\ 8G^\	.	8b^\	.	8gg\	.	.	.	.	.	.	.	.	.	8G\ 8GG^\	.	8B^\	.	8g\	.	8g/ 8B^>/	.	8G\ 8GG^\	.	8gg\ 8g^\	.	8gg\ 8b^\	.	8bb\	.	8ggg\yy	.
!LO:SIC:s=4c/	!	!	!	!	!	!	!	!	!	!	!	!	!	!	!	!	!	!	!	!	!	!	!	!	!	!	!	!	!	!	!	!	!	!	!	!	!
4Re/	.	4C/	.	.	.	4g\ 4G\	.	4cc\	.	4ee\	.	.	.	.	.	.	.	.	.	4G\ 4C\	.	4c\	.	4e\	.	4e/ 4c/	.	4c\ 4C\	.	4gg\ 4g\	.	4ee\ 4cc\	.	4ccc\	.	4eee\yy	.
8r	.	8C/	.	.	.	8g\ 8G\	.	8cc\	.	8ee\	.	.	.	.	.	.	.	.	.	8r	.	8r	.	8r	.	8e/ 8c/	.	8c\ 8C\	.	8gg\ 8g\	.	8ee\ 8cc\	.	8ccc\	.	8eee\yy	.
=2	=2	=2	=2	=2	=2	=2	=2	=2	=2	=2	=2	=2	=2	=2	=2	=2	=2	=2	=2	=2	=2	=2	=2	=2	=2	=2	=2	=2	=2	=2	=2	=2	=2	=2	=2	=2	=2
*	*	*	*	*	*	*	*	*	*	*	*	*	*	*	*	*	*	*	*	*	*	*	*	*	*	*	*	*	*	*	*	*^	*	*	*	*	*
!	!	!	!LO:HP:b	!	!	!	!LO:HP:b	!	!	!	!LO:DY:a	!	!	!	!	!	!	!	!	!	!	!	!	!	!	!	!	!	!	!	!	!	!	!	!	!	!	!
2.r	.	4.D\	>	4.r	.	4.f#\ 4.A\	>	4.a/	>	4dd\	>	2.r	.	2.r	.	4r	.	4r	.	2.r	.	2.r	.	2.r	.	4d/	.	4.A\ 4.D\	>	4.ff#X\ 4.dd\	>	4dd/	4.a\	.	4.aa\	.	4ddd\yy	.
.	.	.	.	.	.	.	.	.	.	8cc\	.	.	.	.	.	8r	.	8r	.	.	.	.	.	.	.	8d/ 8c/	.	.	.	.	.	8cc/	.	.	.	.	8ccc\yy	.
*	*	*	*	*	*	*	*	*	*	*	*	*	*	*	*	*	*	*	*	*	*	*	*	*	*	*	*	*	*^	*	*	*	*	*	*	*	*	*
.	.	.	.	.	.	.	.	.	.	.	.	.	.	.	.	.	.	.	.	.	.	.	.	.	.	.	.	.	.	p	.	.	.	.	.	.	p	.	.
*	*	*	*	*	*	*	*	*	*	*	*	*	*	*	*	*	*	*	*	*	*	*	*	*	*	*	*	*	*v	*v	*	*	*	*	*	*	*	*	*
!	!	!	!	!	!	!	!LO:DY:b	!	!	!	!LO:DY:b	!	!	!	!	!	!	!	!	!	!	!	!	!	!	!	!	!	!	!	!	!	!	!	!	!	!	!
.	.	8G\	]	4G\	.	4g\ 4G\	] p	8.g/L	] p	8.b\L	] p	.	.	.	.	4r	.	4r	.	.	.	.	.	.	.	8d/ 8B/	.	4G\	]	8gg\ 8g\	.	8.b/L 8.g/	4.ryy	p	8.gg\L	.	8.bb\Lyy	.
.	.	8r	.	.	.	.	.	.	.	.	.	.	.	.	.	.	.	.	.	.	.	.	.	.	.	8r	.	.	.	8r	]	.	.	.	.	.	.	.
.	.	.	.	.	.	.	.	16a/K	.	16cc\K	.	.	.	.	.	.	.	.	.	.	.	.	.	.	.	.	.	.	.	.	.	16cc/K 16a/	.	.	16aa\K	.	16ccc\Kyy	.
.	.	8r	.	8G\	.	8g\	.	8b/J	.	8dd\J	.	.	.	.	.	8g\	.	8dd/ 8b/	Z od-	.	.	.	.	.	.	8r	.	8G\	.	8r	.	8dd/J 8b/	.	.	8bb\J	.	8ddd\Jyy	.
=3	=3	=3	=3	=3	=3	=3	=3	=3	=3	=3	=3	=3	=3	=3	=3	=3	=3	=3	=3	=3	=3	=3	=3	=3	=3	=3	=3	=3	=3	=3	=3	=3	=3	=3	=3	=3	=3	=3
*	*	*	*	*	*	*	*	*	*	*	*	*	*	*	*	*	*	*^	*	*	*	*	*	*	*	*	*	*	*	*	*	*	*	*	*	*	*	*
!	!	!	!	!	!	!	!	!	!	!	!LO:HP:b	!	!	!	!	!	!	!	!	!	!	!	!	!	!	!	!	!	!	!	!	!	!	!	!	!	!	!	!
2.r	.	2.r	.	8.C\L	.	8.c\L	.	(4cc\	.	(4ee\	>	2.r	.	2.r	.	(8.c\L	.	4ee\ 4cc#X\	4ryy	-gło-	2.r	.	2.r	.	2.r	.	2.r	.	8.C\L	.	2.ryy	.	(4ee\ 4cc\	4.ryy	>	(4ccc\	>	4eee\yy	.
.	.	.	.	16E\K	.	16e\K	.	.	.	.	.	.	.	.	.	16e\Jk)	.	.	.	.	.	.	.	.	.	.	.	.	16E\K	.	.	.	.	.	.	.	.	.	.
.	.	.	.	8G\J	.	8g\J	.	8b\)	.	8dd\)	.	.	.	.	.	8g\	.	8dd\ 8b\	8ryy	-sem	.	.	.	.	.	.	.	.	8G\J	.	.	.	8dd\ 8b\)	.	]	8bb\)	.	8ddd\yy	.
.	.	.	.	(4F#\	.	4f#\	.	(4a/ 4d/	.	(8dd\L	]	.	.	.	.	4f#\	.	8dd/L	4a\	wdzię-	.	.	.	.	.	.	.	.	(4F#\	.	.	.	(8dd/L	4.a\	.	(4aa\	]	8ddd\Lyy	.
.	.	.	.	.	.	.	.	.	.	8cc\	.	.	.	.	.	.	.	8cc#/J	.	.	.	.	.	.	.	.	.	.	.	.	.	.	8cc/	.	.	.	.	8ccc\yy	.
.	.	.	.	8G\)	.	8g\	.	8g/)	.	8b\J)	.	.	.	.	.	8g\	.	8b/	8g\	-cznych	.	.	.	.	.	.	.	.	8G\)	.	.	.	8b/J)	.	.	8gg\)	.	8bb\Jyy	.
!!LO:PB:g=original
=4	=4	=4	=4	=4	=4	=4	=4	=4	=4	=4	=4	=4	=4	=4	=4	=4	=4	=4	=4	=4	=4	=4	=4	=4	=4	=4	=4	=4	=4	=4	=4	=4	=4	=4	=4	=4	=4	=4	=4
*	*	*	*	*	*	*	*	*	*	*	*	*	*	*	*	*	*	*	*	*	*	*	*	*	*	*	*	*	*^	*	*	*	*	*	*	*	*	*	*
2.r	.	2.r	.	4C/	.	(4.e\	.	4.e/	.	(8.a/L	.	2.r	.	2.r	.	4.c\	pie-	8.a/L	4.e\	.	2.r	.	2.r	.	2.r	.	2.r	.	4.c\	4.C\	.	2.r	.	(8.a/L	4.e\	.	4.ee\	.	(8.aa\L	<
.	.	.	.	.	.	.	.	.	.	32b/LL	.	.	.	.	.	.	.	32b/LL	.	.	.	.	.	.	.	.	.	.	.	.	.	.	.	32b/LL	.	.	.	.	32bb\LL	.
.	.	.	.	.	.	.	.	.	.	32a/JJJ	.	.	.	.	.	.	.	32a/JJJ	.	.	.	.	.	.	.	.	.	.	.	.	.	.	.	32a/JJJ	.	.	.	.	32aa\J	.
.	.	.	.	(8c\	.	.	.	.	.	16g/LL	.	.	.	.	.	.	.	16g/LL	.	.	.	.	.	.	.	.	.	.	.	.	.	.	.	16g/LL	.	.	.	.	16gg\	.
.	.	.	.	.	.	.	.	.	.	16a/JJ	.	.	.	.	.	.	.	16a/JJ	.	.	.	.	.	.	.	.	.	.	.	.	.	.	.	16a/JJ	.	.	.	.	16aa\JJ	.
.	.	.	.	8B\)	.	4d#X\	.	4f#/	.	4b/)	.	.	.	.	.	4B\	-ni	4b/	4d#X\	.	.	.	.	.	.	.	.	.	4B\	4BB\	.	.	.	4b/)	4f#\ 4d#X\	.	4dd#X\	.	4bb\)	[
.	.	.	.	(8B\L	.	.	.	.	.	.	.	.	.	.	.	.	.	.	.	.	.	.	.	.	.	.	.	.	.	.	.	.	.	.	.	.	.	.	.	.
.	.	.	.	8A\J	.	8dn\	.	8f#/	.	8cc/	.	.	.	.	.	8A/	Ku	8cc/	8dn\	.	.	.	.	.	.	.	.	.	8A/	8r	.	.	.	8cc/	8f#\ 8dn\	.	8ddn\	.	8ccc\	.
=5	=5	=5	=5	=5	=5	=5	=5	=5	=5	=5	=5	=5	=5	=5	=5	=5	=5	=5	=5	=5	=5	=5	=5	=5	=5	=5	=5	=5	=5	=5	=5	=5	=5	=5	=5	=5	=5	=5	=5	=5
2.r	.	2.r	.	8G\L)	.	8d/L)	.	4g/	.	(>8b/L	.	2.r	.	2.r	.	8G/L	To-	(8b/L	4g\	.	2.r	.	2.r	.	2.r	.	2.r	.	(8G\L	2.r	.	2.r	.	(8b/L	4g\	.	4gg\	.	(8bb\L	.
.	.	.	.	(8c\	.	8c/	.	.	.	8ee/	.	.	.	.	.	8c/J	.	8ee/)	.	.	.	.	.	.	.	.	.	.	8c\	.	.	.	.	8ee/	.	.	.	.	8eee\	.
.	.	.	.	8B\J)	.	8B/J	.	8g/	.	8dd/J)	.	.	.	.	.	8B/	-bie	8dd/J	8g\	.	.	.	.	.	.	.	.	.	8B\J	.	.	.	.	8dd/J	8g\	.	8gg\	.	8ddd\J	.
.	.	.	.	(8B\L	.	8B/L	.	(8g/L	.	(>8dd/L	.	.	.	.	.	8B/L	się	8dd/L 8g/	4.ryy	.	.	.	.	.	.	.	.	.	8B\L	.	.	.	.	8dd/L	8g\L	.	(8gg\L	.	8ddd\L	.
.	.	.	.	8A\	.	8A/	.	8f#/	.	8cc/	.	.	.	.	.	8A/J	.	8cc/J 8f#/	.	.	.	.	.	.	.	.	.	.	8A\	.	.	.	.	8cc/	8f#\	.	8ff#\	.	8ccc\	.
.	.	.	.	8G\J)	.	8G/J	.	8g/J	.	8b/J)	.	.	.	.	.	8G/	wzno-	8b/ 8g/	.	.	.	.	.	.	.	.	.	.	8G\J)	.	.	.	.	8b/J)	8g\J	.	8gg\J)	.	8bb\J)	.
*	*	*	*	*	*	*	*	*	*	*	*	*	*	*	*	*	*	*v	*v	*	*	*	*	*	*	*	*	*	*	*	*	*	*	*v	*v	*	*	*	*	*
=6	=6	=6	=6	=6	=6	=6	=6	=6	=6	=6	=6	=6	=6	=6	=6	=6	=6	=6	=6	=6	=6	=6	=6	=6	=6	=6	=6	=6	=6	=6	=6	=6	=6	=6	=6	=6	=6	=6
!	!	!	!	!	!	!	!	!	!	!	!	!	!	!	!	!	!	!	!	!	!	!	!	!	!	!	!LO:DY:rj	!	!	!	!	!	!	!	!	!	!	!
2.r	.	4r	.	(4.d\	.	[4.d\	.	(>8.g/L)	.	(8.b\L	.	4r	.	4r	.	4.G/	-sie-	(>8.b/L 8.g/	.	2.r	.	2.r	.	2.r	.	(8.b/L 8.g/	p	4.G\	4r	.	[>4.dd/ [>4.g/	.	(8.b/L 8.g/	.	(8.gg\L	.	(8.bb\L	.
.	.	.	.	.	.	.	.	16a/L	.	16cc\L	.	.	.	.	.	.	.	16cc/L 16a/	.	.	.	.	.	.	.	16cc/L 16a/	.	.	.	.	.	.	16cc/L 16a/	.	16aa\L	.	16ccc\L	.
.	.	8r	.	.	.	.	.	16a#X^/	.	16cc#X^\	.	8r	.	8r	.	.	.	16cc#X/ 16a#X/	.	.	.	.	.	.	.	16cc#X/ 16a#X/	.	.	8r	.	.	.	16cc#X/ 16a#X/	.	16aa#X\	.	16ccc#X\	.
.	.	.	.	.	.	.	.	16b/JJ	.	16dd\JJ	.	.	.	.	.	.	.	16dd/JJ 16b/)	.	.	.	.	.	.	.	16dd/JJ 16b/	.	.	.	.	.	.	16dd/JJ 16b/	.	16bb\JJ	.	16ddd\JJ	.
.	.	4r	.	4D\)	.	4d\]	.	4f#/)	.	4a/)	.	4r	.	4r	.	4d\	-my	4an/ 4f#/	.	.	.	.	.	.	.	4an/ 4f#/)	.	4D/	4D\	.	4dd/] 4g/]	.	4an/ 4f#/)	.	4ff#\)	.	4aa\)	.
!	!	!	!LO:DY:b	!	!	!	!	!	!	!	!	!	!	!	!	!	!	!	!	!	!	!	!	!	!	!	!	!	!	!	!	!	!	!	!	!	!	!
.	.	.	p	.	.	.	.	.	.	.	.	.	.	.	.	.	.	.	.	.	.	.	.	.	.	.	.	.	.	.	.	.	.	.	.	.	.	.
.	.	8BB/	.	8G\	.	8d\	.	8r	.	8r	.	8BB/	Przez	8d\ 8G\	.	8r	.	8r	.	.	.	.	.	.	.	8r	.	8B\	8BB\	.	8dd/ 8g/	.	8r	.	8r	.	8r	.
*	*	*	*	*	*	*	*	*	*	*	*	*	*	*	*	*	*	*	*	*	*	*	*	*	*	*	*	*v	*v	*	*	*	*	*	*	*	*	*
=7	=7	=7	=7	=7	=7	=7	=7	=7	=7	=7	=7	=7	=7	=7	=7	=7	=7	=7	=7	=7	=7	=7	=7	=7	=7	=7	=7	=7	=7	=7	=7	=7	=7	=7	=7	=7	=7
*	*	*	*	*	*	*	*	*	*	*	*	*	*	*^	*	*	*	*	*	*	*	*	*	*	*	*	*	*	*	*^	*	*	*	*	*	*	*
2.r	.	4C/	.	4G\	.	4e\	.	2.r	.	2.r	.	4C/	Cie-	4e\ 4G\	4ryy	.	2.r	.	2.r	.	2.r	.	2.r	.	2.r	.	2.r	.	4c\ 4C\	.	4ee/ 4g/	4.ryy	.	2.r	.	2.r	.	2.r	.
.	.	8BB/	.	8G\	.	8d\	.	.	.	.	.	8BB/	-bie	8d\ 8G\	8ryy	.	.	.	.	.	.	.	.	.	.	.	.	.	8B\ 8BB\	.	8dd/ 8g/	.	.	.	.	.	.	.	.
!	!	!	!	!	!	!LO:TUP:a:problem:klamra łukowa, kropka zamiast numeru	!	!	!	!	!	!	!	!LO:TUP:a:problem:klamra łukowa	!	!	!	!	!	!	!	!	!	!	!	!	!	!	!	!	!LO:TUP:a:problem:klamra łukowa, kropka zamiast numeru	!	!	!	!	!	!	!	!
.	.	4AA/	.	4F#\	.	24d\LL	.	.	.	.	.	4AA/	wy-	24d/LL	4F#\	.	.	.	.	.	.	.	.	.	.	.	.	.	4A\ 4AA\	.	24dd/LL	4f#\	.	.	.	.	.	.	.
.	.	.	.	.	.	24e\	.	.	.	.	.	.	.	24e/	.	.	.	.	.	.	.	.	.	.	.	.	.	.	.	.	24ee/	.	.	.	.	.	.	.	.
.	.	.	.	.	.	24d\JJ	.	.	.	.	.	.	.	24d/JJ	.	.	.	.	.	.	.	.	.	.	.	.	.	.	.	.	24dd/JJ	.	.	.	.	.	.	.	.
.	.	.	.	.	.	8c\L	.	.	.	.	.	.	.	8c/	.	.	.	.	.	.	.	.	.	.	.	.	.	.	.	.	8cc/L	.	.	.	.	.	.	.	.
.	.	8GG/	.	8G\	.	8B\J	.	.	.	.	.	8GG/	-ba-	8B/	8G\	.	.	.	.	.	.	.	.	.	.	.	.	.	8G/ 8GG/	.	8b/J	8g\	.	.	.	.	.	.	.
=8	=8	=8	=8	=8	=8	=8	=8	=8	=8	=8	=8	=8	=8	=8	=8	=8	=8	=8	=8	=8	=8	=8	=8	=8	=8	=8	=8	=8	=8	=8	=8	=8	=8	=8	=8	=8	=8	=8	=8
2.r	.	4C/	.	4G\	.	4.e\	.	2.r	.	2.r	.	(4C/	-wie-	4.e/	4G\	.	2.r	.	2.r	.	2.r	.	2.r	.	2.r	.	2.r	.	4C/ 4CC/	.	4.ee/	4g\	.	2.r	.	2.r	.	2.r	.
.	.	8E\	.	8c\	.	.	.	.	.	.	.	8E\)	.	.	8c\	.	.	.	.	.	.	.	.	.	.	.	.	.	8E/ 8EE/	.	.	8cc\	.	.	.	.	.	.	.
.	.	4G\	.	4B\	.	4d\	.	.	.	.	.	4G\	-ni	4d/	4B\	.	.	.	.	.	.	.	.	.	.	.	.	.	4G\ 4GG\	.	4dd/	4b\	.	.	.	.	.	.	.
.	.	8G#X^<\	.	8B^\	.	8e\	.	.	.	.	.	8G#X^\	Twój	8e/	8B\	.	.	.	.	.	.	.	.	.	.	.	.	.	8G#X\ 8GG#X\	.	8ee/	8b\	.	.	.	.	.	.	.
!!LO:PB:g=original
=9	=9	=9	=9	=9	=9	=9	=9	=9	=9	=9	=9	=9	=9	=9	=9	=9	=9	=9	=9	=9	=9	=9	=9	=9	=9	=9	=9	=9	=9	=9	=9	=9	=9	=9	=9	=9	=9	=9	=9
2.r	.	4A\	.	4A\	.	4c/	.	2.r	.	2.r	.	4A\	Chri-	4c/	4A\	.	2.r	.	2.r	.	2.r	.	2.r	.	2.r	.	2.r	.	4A\ 4AA\	.	4cc/	4a\	.	2.r	.	2.r	.	2.r	.
.	.	8F#\	.	8A\	.	8d/	.	.	.	.	.	8F#\	-ste	8d/	8A\	.	.	.	.	.	.	.	.	.	.	.	.	.	8F#\ 8FF#\	.	8dd/	8a\	.	.	.	.	.	.	.
.	.	(8G\L	.	4G\	.	4B/	.	.	.	.	.	8G\L	zgon	4B/	4G\	.	.	.	.	.	.	.	.	.	.	.	.	.	8G\L 8GG\	.	4b/	4g\	.	.	.	.	.	.	.
.	.	8Fn\J)	.	.	.	.	.	.	.	.	.	8Fn\J	.	.	.	.	.	.	.	.	.	.	.	.	.	.	.	.	8Fn\J	.	.	.	.	.	.	.	.	.	.
.	.	(16E\LL	.	16G\LL	.	(>16d/LL	.	.	.	.	.	(16E\LL	świę-	(16d\LL 16G\	8ryy	.	.	.	.	.	.	.	.	.	.	.	.	.	(16E\LL	.	(16dd/LL	16g\LL	.	.	.	.	.	.	.
.	.	16C\JJ)	.	16A\JJ	.	16c/JJ	.	.	.	.	.	16C\JJ)	.	16c\JJ 16A\)	.	.	.	.	.	.	.	.	.	.	.	.	.	.	16C\JJ)	.	16cc/JJ)	16a\JJ	.	.	.	.	.	.	.
*	*	*	*	*	*	*	*	*	*	*	*	*	*	*v	*v	*	*	*	*	*	*	*	*	*	*	*	*	*	*	*	*	*	*	*	*	*	*	*	*
=10	=10	=10	=10	=10	=10	=10	=10	=10	=10	=10	=10	=10	=10	=10	=10	=10	=10	=10	=10	=10	=10	=10	=10	=10	=10	=10	=10	=10	=10	=10	=10	=10	=10	=10	=10	=10	=10	=10
*	*	*	*	*	*	*	*	*	*	*	*	*	*	*	*	*	*	*	*	*	*	*	*	*	*	*	*	*	*	*	*	*	*^	*	*	*	*	*
2.r	.	4D/	.	4G\	.	4B/)	.	4r	.	4r	.	(4D/	-cie-	(>4B/ 4G/	.	4r	.	4r	.	4r	.	4r	.	4r	.	4r	.	4D/	.	4b/	4g\	.	4r	4.ryy	.	4r	.	4r	.
.	.	8Cn/	.	8F#\	.	8A/	.	8r	.	8r	.	8C/)	.	8A/ 8Fn/)	.	8r	.	8r	.	8r	.	8r	.	8r	.	8r	.	8C/	.	8a/	8f#X\	.	8r	.	.	8r	.	8r	.
.	.	4BB/	.	4G\	.	4d/	.	4r	.	4r	.	4BB/	-my	4d/ 4G/	.	4r	.	4r	.	4r	.	4r	.	4r	.	4r	.	4BB/	.	4dd/	4g\	.	4r	4ryy	.	4r	.	4r	.
.	.	8BB/	.	8BB/	.	8d#X\	.	(>8g/ 8G/	.	(8dd#X\	.	8BB/	[[Twój	8d#X\ 8G\	.	8A/	.	8dd#X\	Przez	8B\ 8BB\	.	8d#X\	.	8g\	.	8dd#X/ 8g/	.	8B\ 8BB\	.	8dd#X/	8g\	.	8dd#X/	8g\	.	8gg\	.	8ddd#X\	.
*	*	*	*	*	*	*	*	*	*	*	*	*	*	*	*	*	*	*	*	*	*	*	*	*	*	*	*	*	*	*v	*v	*	*	*	*	*	*	*	*
=11	=11	=11	=11	=11	=11	=11	=11	=11	=11	=11	=11	=11	=11	=11	=11	=11	=11	=11	=11	=11	=11	=11	=11	=11	=11	=11	=11	=11	=11	=11	=11	=11	=11	=11	=11	=11	=11	=11
*	*	*	*	*	*	*	*	*	*	*	*	*	*	*^	*	*	*	*	*	*^	*	*	*	*	*	*^	*	*	*	*	*	*	*	*	*	*	*	*
2.r	.	(4C/	.	4G\yy	.	4e\	.	4g/ 4G/	.	4ee\)	.	4C/	Chri-	4e\ 4G\	4ryy	.	4A/	.	4ee\	Cie-	4c\	4C\	.	4e\	.	4g\	.	4ee/ 4g/	4ryy	.	4c\ 4C\	.	4ee\ 4cc\	.	4ee/	4g\	.	4gg\	.	4eee\	.
.	.	8C#X/	.	8F#\yy	.	8e\	.	8g/ 8G/	.	8a#X/	.	8C#X/	-ste	8e\ 8G\	8ryy	.	8A/	.	8a#X/	-bie	8c#X\	8C#X\	.	8A#X\	.	8g\	.	8a#X/ 8e/	8ryy	.	8c#X\ 8C#X\	.	8ee\ 8cc#X\	.	8a#X/	8g\	.	8gg\	.	8aa#X\	.
!	!	!	!	!	!	!	!LO:HP:b	!	!	!	!	!	!	!	!	!	!	!	!	!	!	!	!	!	!	!	!	!	!	!	!	!	!	!	!	!	!	!	!	!	!LO:HP:a
.	.	4D\	.	4G\yy	.	4dn\	<	4g/ 4G/	.	(<8b/L	.	4D\	zgon	4d/	8G\L	.	4A/	.	8b/L	wy-	4d\	4D\	.	8B\	.	4g\	.	8b/L	4g\	.	4d\ 4D\	.	4dd\	.	(8b/L	4g\	.	4gg\	.	(8bb\L	<
.	.	.	.	.	.	.	.	.	.	8an/	.	.	.	.	8A\J	.	.	.	8an/J	.	.	.	.	4An\	.	.	.	8an/	.	.	.	.	.	.	8an/)	.	.	.	.	8aan\)	.
.	.	8D\	.	8BB/yy	.	8d\	.	8f#/ 8A/)	.	8dd/J	.	8D\	świę-	8d/	8A\	.	8G/	.	8dd\	-ba-	8D/	8D\	.	.	.	8f#\	<	8dd/J	8f#\	.	8d\ 8D\	.	8dd\	.	8dd/J	8f#\	.	8ff#\	.	8ddd\J	.
*	*	*	*	*	*	*	*	*	*	*	*	*	*	*v	*v	*	*	*	*	*	*v	*v	*	*	*	*	*	*	*	*	*	*	*	*	*	*	*	*	*	*	*
=12	=12	=12	=12	=12	=12	=12	=12	=12	=12	=12	=12	=12	=12	=12	=12	=12	=12	=12	=12	=12	=12	=12	=12	=12	=12	=12	=12	=12	=12	=12	=12	=12	=12	=12	=12	=12	=12	=12	=12
*	*	*	*	*	*	*	*	*	*	*	*	*	*	*	*	*	*	*	*	*	*	*	*	*	*	*	*	*	*	*	*^	*	*	*	*	*	*	*	*
*	*	*	*	*	*	*	*	*tremolo	*	*	*	*	*	*	*	*	*	*	*	*	*	*	*	*	*	*	*	*	*	*	*	*	*	*	*	*	*	*	*	*
!	!	!	!LO:HP:b	!	!	!	!	!	!	!	!LO:HP:b	!	!	!	!	!	!	!	!	!	!	!	!	!	!	!	!	!	!	!	!	!	!	!	!	!	!	!	!	!
4r	.	8E/L)	<	4G\yy	.	(8B\L	.	8g/L 8G/	.	8b\L)	<	8E\	-cie]]	8B\ 8G\	.	8A/	.	8b\	-wie-	8E\	.	8B\L	.	8g\L	.	8b/L	8g\L	.	8e\ 8E\	.	8gg\L 8g\	4.ryy	.	8b/L	8g\L	.	(8gg'\L	.	(8bb\L	.
.	.	8BB/	.	.	.	8d\	.	8g/ 8G/	.	8dd\	.	8BB/	.	8d\ 8G\	.	8A/	.	8dd\	-ni	8BB/L	.	8d\	.	8g\	.	8dd/	8g\	.	8B\L 8BB\	.	8gg\ 8g\	.	.	8dd/	8g\	.	8gg'\	.	8ddd\)	.
8r	.	8BB/J	.	8F#\yy	.	8d#X\J	.	8g/J 8G/	.	8dd#X\J	.	8BB/	.	8d#X\ 8G\	.	8A/	.	8dd#X\	Twój	8BB/J	.	8d#X\J	.	8g\J	.	8dd#X/J	8g\J	.	8B\J 8BB\	.	8gg\J 8g\	.	.	8dd#X/J	8g\J	.	8gg'\J)	.	8ddd#X\J	.
*	*	*	*	*	*	*	*	*Xtremolo	*	*	*	*	*	*	*	*	*	*	*	*	*	*	*	*	*	*	*	*	*	*	*	*	*	*	*	*	*	*	*	*
4r	.	4C/	.	4G\yy	.	4e\)	.	4g/ 4G/	.	(4ee\	.	4C/	.	4e\ 4G\	.	4A/	.	4ee\	Chri-	4C/	.	4e\	.	4g\	.	4ee/	4g\	.	4c\ 4C\	.	4ee/	4cc\	.	4ee/	4g\	.	4gg\	.	4eee\	.
!LO:SIC:s=8G\	!	!	!	!	!	!	!	!	!	!	!	!	!	!	!	!	!	!	!	!	!	!	!	!	!	!	!	!	!	!	!	!	!	!	!	!	!	!	!	!
8Re\	.	8C#X/	[[	8BB/yy	.	8e\	[	8a#X/ 8G/	.	8gg\)	[[	8C#X/	.	8e\ 8G\	.	8B#X/	.	8gg\	-ste	8C#X/	.	8e\	.	8g\	[	8gg/	8a#X\	.	8c#X\ 8C#X\	.	8ee/	8cc#X\	.	8gg/	8a#X\	.	8aa#X\	.	8ggg\	[
!!LO:PB:g=original
=13	=13	=13	=13	=13	=13	=13	=13	=13	=13	=13	=13	=13	=13	=13	=13	=13	=13	=13	=13	=13	=13	=13	=13	=13	=13	=13	=13	=13	=13	=13	=13	=13	=13	=13	=13	=13	=13	=13	=13	=13
!LO:SIC:s=4G\	!	!	!	!	!	!	!	!	!	!	!	!	!	!	!	!	!	!	!	!	!	!	!	!	!	!	!	!	!	!	!	!	!	!	!	!	!	!	!	!
4Re\	.	4D\	.	8.d\L 8.B\	.	4d\	.	8.b/L	.	8.dd\L	.	4D\	.	8.d\L 8.B\	.	8.c/L	.	8.dd\L	zgon	4D\	.	8.d\L	.	8.b\L	.	8.dd\L 8.b\	4.ryy	.	4d\ 4D\	.	4dd/	4dd\	.	8.dd/L 8.b/	4.ryy	.	8.bb\L	.	8.ddd\L	.
.	.	.	.	16c\K 16A\	.	.	.	16a/K	.	16cc\K	.	.	.	16c\Jk 16A\	.	16Bn/Jk	.	16cc\Jk	.	.	.	16c\K	.	16a\K	.	16cc\K 16a\	.	.	.	.	.	.	.	16cc/K 16a/	.	.	16aa\K	.	16ccc\K	.
!LO:SIC:s=8G\	!	!	!	!	!	!	!	!	!	!	!	!	!	!	!	!	!	!	!	!	!	!	!	!	!	!	!	!	!	!	!	!	!	!	!	!	!	!	!	!
8Re\	.	8D\	.	8B\J 8G\	.	8d\	.	8g/J	.	8b\J	.	8D\	.	8B/ 8G/	.	8A/	.	8b\	świę-	8D\	.	8B\J	.	8g\J	.	8b\J 8g\	.	.	8d\ 8D\	.	8dd/	8dd\	.	8b/J 8g/	.	.	8gg\J	.	8bb\J	.
!LO:SIC:s=4.GT\	!	!	!	!	!	!	!	!	!	!	!	!	!	!	!	!	!	!	!	!	!	!	!	!	!	!	!	!	!	!	!	!	!	!	!	!	!	!	!	!
4.Re\	.	4.D\	.	4.A\ 4.D\	.	4.d\	.	(4g/	.	(4a/	.	4.D\	.	4.A/	.	(>4A/	.	(4a/	-cie-	4.D\	.	4.A\	.	4g\	.	4a/	4g\	.	4.D/ 4.DD/	.	4.dd/	4.dd\	.	4a/	4g\	.	4gg\	.	4aa\	.
.	.	.	.	.	.	.	.	8f#/)	.	8dd\)	.	.	.	.	.	8G/)	.	8dd\)	.	.	.	.	.	8f#\	.	8dd/	8f#\	.	.	.	.	.	.	8dd/	8f#\	.	8ff#\	.	8ddd\	.
=14	=14	=14	=14	=14	=14	=14	=14	=14	=14	=14	=14	=14	=14	=14	=14	=14	=14	=14	=14	=14	=14	=14	=14	=14	=14	=14	=14	=14	=14	=14	=14	=14	=14	=14	=14	=14	=14	=14	=14	=14
!LO:SIC:s=4G\	!	!	!LO:DY:b	!	!	!	!	!	!	!	!	!	!	!	!	!	!	!	!	!	!	!	!	!	!	!	!	!	!	!	!	!	!	!	!	!	!	!	!	!
4Re\	.	4G\	fp	4G\	.	4e-X\	.	4g/	.	4g/	.	4G\	.	4G/	.	4A/	.	4g/	-my	4G\ 4GG\	.	4G/	.	4g\	.	4g/	4g\	.	4G\ 4GG\	.	8g/	8g\	.	4g/	4g\	.	4gg\	.	4gg\	.
!	!	!	!	!	!	!	!	!	!	!	!LO:DY:b	!	!	!	!	!	!	!	!	!	!	!	!	!	!	!	!	!	!	!	!	!	!	!	!	!	!	!	!	!
.	.	.	.	.	.	.	.	.	fp	.	fp	.	.	.	.	.	.	.	.	.	.	.	.	.	.	.	.	.	.	.	8ryy	8ryy	.	.	.	.	.	.	.	.
8r	.	(8E-X^<\	.	2ryy	.	(8e-\	.	(8g/	.	(8cc#X\	.	8r	.	8r	.	8r	.	8r	.	8r	.	8r	.	8r	.	8r	8ryy	.	8r	.	8r	2ryy	.	8r	8ryy	.	8r	.	8r	.
4r	.	4D\)	.	.	.	4d\)	.	4f#/)	.	4dd\)	.	4r	.	4r	.	4r	.	4r	.	4r	.	4r	.	4r	.	4r	4ryy	.	4r	.	4r	.	.	4r	4ryy	.	4r	.	4r	.
!	!	!	!LO:DY:b	!	!	!	!	!	!	!	!LO:DY:b	!	!	!	!	!	!	!	!	!	!	!	!	!	!	!	!	!	!	!	!	!	!	!	!	!	!	!	!	!
.	.	.	fp	.	.	.	.	.	fp	.	fp	.	.	.	.	.	.	.	.	.	.	.	.	.	.	.	.	.	.	.	.	.	.	.	.	.	.	.	.	.
8r	.	(>8C^</	.	.	.	(8c\	.	[8g/	.	(8ee-X\	.	8r	.	8r	.	8r	.	8r	.	8r	.	8r	.	8r	.	8r	8ryy	.	8r	.	8r	.	.	8r	8ryy	.	8r	.	8r	.
*	*	*	*	*	*	*	*	*	*	*	*	*	*	*	*	*	*	*	*	*	*	*	*	*	*	*	*	*	*	*	*v	*v	*	*	*	*	*	*	*	*
*	*	*	*	*	*	*	*	*	*	*	*	*	*	*	*	*	*	*	*	*	*	*	*	*	*	*v	*v	*	*	*	*	*	*v	*v	*	*	*	*	*
=15	=15	=15	=15	=15	=15	=15	=15	=15	=15	=15	=15	=15	=15	=15	=15	=15	=15	=15	=15	=15	=15	=15	=15	=15	=15	=15	=15	=15	=15	=15	=15	=15	=15	=15	=15	=15	=15
2.r	.	4BB-X/)	.	2.ryy	.	4B-X/)	.	4g/]	.	4dd\)	.	2.r	.	2.r	.	2.r	.	2.r	.	2.r	.	2.r	.	2.r	.	2.r	.	2.r	.	2.r	.	2.r	.	2.r	.	2.r	.
.	.	8AA/	.	.	.	8A/	.	8f#X/	.	8cc\	.	.	.	.	.	.	.	.	.	.	.	.	.	.	.	.	.	.	.	.	.	.	.	.	.	.	.
.	.	4GG/	.	.	.	4G/	.	4g/	.	4b-X\	.	.	.	.	.	.	.	.	.	.	.	.	.	.	.	.	.	.	.	.	.	.	.	.	.	.	.
.	.	8E-X\	.	.	.	8e-X\	.	8g/	.	8cc\	.	.	.	.	.	.	.	.	.	.	.	.	.	.	.	.	.	.	.	.	.	.	.	.	.	.	.
=16	=16	=16	=16	=16	=16	=16	=16	=16	=16	=16	=16	=16	=16	=16	=16	=16	=16	=16	=16	=16	=16	=16	=16	=16	=16	=16	=16	=16	=16	=16	=16	=16	=16	=16	=16	=16	=16
2.r	.	8Fn\	.	2.ryy	.	8d\	.	8fn/	.	8b-X\	.	2.r	.	2.r	.	2.r	.	2.r	.	2.r	.	2.r	.	2.r	.	2.r	.	2.r	.	2.r	.	2.r	.	2.r	.	2.r	.
.	.	8r	.	.	.	8r	.	8r	.	8r	.	.	.	.	.	.	.	.	.	.	.	.	.	.	.	.	.	.	.	.	.	.	.	.	.	.	.
!	!	!	!LO:DY:b	!	!	!	!	!	!	!	!LO:DY:b	!	!	!	!	!	!	!	!	!	!	!	!	!	!	!	!	!	!	!	!	!	!	!	!	!	!
.	.	.	f	.	.	.	.	.	.	.	f	.	.	.	.	.	.	.	.	.	.	.	.	.	.	.	.	.	.	.	.	.	.	.	.	.	.
!	!	!LO:TUP:a:problem:klamra łukowa	!	!	!	!LO:TUP:a:problem:klamra łukowa	!LO:DY:b	!LO:TUP:a:problem:klamra łukowa	!	!LO:TUP:a:problem:klamra łukowa	!	!	!	!	!	!	!	!	!	!	!	!	!	!	!	!	!	!	!	!	!	!	!	!	!	!	!
.	.	24F\LL	.	.	.	24fn\LL	f	24f/LL	.	24fn/LL	.	.	.	.	.	.	.	.	.	.	.	.	.	.	.	.	.	.	.	.	.	.	.	.	.	.	.
.	.	24G\	.	.	.	24g\	.	24g/	.	24g/	.	.	.	.	.	.	.	.	.	.	.	.	.	.	.	.	.	.	.	.	.	.	.	.	.	.	.
.	.	24F\JJ	.	.	.	24f\JJ	.	24f/JJ	.	24f/JJ	.	.	.	.	.	.	.	.	.	.	.	.	.	.	.	.	.	.	.	.	.	.	.	.	.	.	.
.	.	4D/	.	.	.	4d\	.	4d/	.	4d/	.	.	.	.	.	.	.	.	.	.	.	.	.	.	.	.	.	.	.	.	.	.	.	.	.	.	.
.	.	8BB-X/	.	.	.	8B-X/	.	8B-X/	.	8B-X/	.	.	.	.	.	.	.	.	.	.	.	.	.	.	.	.	.	.	.	.	.	.	.	.	.	.	.
=17	=17	=17	=17	=17	=17	=17	=17	=17	=17	=17	=17	=17	=17	=17	=17	=17	=17	=17	=17	=17	=17	=17	=17	=17	=17	=17	=17	=17	=17	=17	=17	=17	=17	=17	=17	=17	=17
*	*	*	*	*	*	*	*	*	*	*	*	*	*	*	*	*	*	*	*	*	*	*	*	*	*	*	*	*^	*	*^	*	*	*	*	*	*	*
!	!	!	!LO:HP:b	!	!	!	!LO:HP:b	!	!	!	!	!	!	!	!	!	!	!	!	!	!	!	!	!	!	!	!	!	!	!	!	!	!	!	!	!	!	!	!
2.r	.	(4.FFn/	>	2ryy	.	[4.Fn/	>	(>4B-X/	.	[>4.c/	.	4r	.	4r	.	2.r	.	2.r	.	2.r	.	2.r	.	2.r	.	2.r	.	4r	2.r	.	4r	2.r	.	2.r	.	2.r	.	2.r	.
.	.	.	.	.	.	.	.	16A/LL	.	.	.	8r	.	8r	.	.	.	.	.	.	.	.	.	.	.	.	.	8r	.	.	8r	.	.	.	.	.	.	.	.
.	.	.	.	.	.	.	.	16G/JJ	.	.	.	.	.	.	.	.	.	.	.	.	.	.	.	.	.	.	.	.	.	.	.	.	.	.	.	.	.	.	.
.	.	4Fn\)	.	.	.	4F/]	.	4A/)	.	4c/]	.	4r	.	4r	.	.	.	.	.	.	.	.	.	.	.	.	.	4r	.	.	4r	.	.	.	.	.	.	.	.
.	.	.	.	8ryy	.	.	.	.	.	.	.	.	.	.	.	.	.	.	.	.	.	.	.	.	.	.	.	.	.	.	.	.	.	.	.	.	.	.	.
!	!	!	!	!	!	!	!	!	!	!	!	!	!	!	!	!	!	!	!	!	!	!	!	!	!	!	!	!	!	!	!LO:TX:a:t=Io.	!	!	!	!	!	!	!	!
.	.	8r	]	8Fn\	.	8F/	]	8r	.	8r	.	8Fn\	.	8Fn/	Ze-	.	.	.	.	.	.	.	.	.	.	.	.	8Fn/	.	.	8f#/	.	.	.	.	.	.	.	.
*	*	*	*	*	*	*	*	*	*	*	*	*	*	*	*	*	*	*	*	*	*	*	*	*	*	*	*	*v	*v	*	*	*	*	*	*	*	*	*	*
*	*	*	*	*	*	*	*	*	*	*	*	*	*	*	*	*	*	*	*	*	*	*	*	*	*	*	*	*	*	*v	*v	*	*	*	*	*	*	*
!!LO:PB:g=original
=18||	=18||	=18||	=18||	=18||	=18||	=18||	=18||	=18||	=18||	=18||	=18||	=18||	=18||	=18||	=18||	=18||	=18||	=18||	=18||	=18||	=18||	=18||	=18||	=18||	=18||	=18||	=18||	=18||	=18||	=18||	=18||	=18||	=18||	=18||	=18||	=18||	=18||
*k[fnb-e-]	*	*k[fnb-e-]	*	*k[fnb-e-]	*	*k[fnb-e-]	*	*k[fnb-e-]	*	*k[fnb-e-]	*	*k[fnb-e-]	*	*k[fnb-e-]	*	*k[fnb-e-]	*	*k[fnb-e-]	*	*k[fnb-e-]	*	*k[fnb-e-]	*	*k[fnb-e-]	*	*k[fnb-e-]	*	*k[fnb-e-]	*	*k[]	*	*k[fnb-e-]	*	*k[fnb-e-]	*	*k[fnb-e-]	*
*M4/4	*	*M4/4	*	*M4/4	*	*M4/4	*	*M4/4	*	*M4/4	*	*M4/4	*	*M4/4	*	*M4/4	*	*M4/4	*	*M4/4	*	*M4/4	*	*M4/4	*	*M4/4	*	*M4/4	*	*M4/4	*	*M4/4	*	*M4/4	*	*M4/4	*
*met(c)	*	*met(c)	*	*met(c)	*	*met(c)	*	*met(c)	*	*met(c)	*	*met(c)	*	*met(c)	*	*met(c)	*	*met(c)	*	*met(c)	*	*met(c)	*	*met(c)	*	*met(c)	*	*met(c)	*	*met(c)	*	*met(c)	*	*met(c)	*	*met(c)	*
*	*	*	*	*^	*	*	*	*	*	*	*	*	*	*	*	*	*	*	*	*	*	*	*	*	*	*	*	*^	*	*^	*	*	*	*	*	*	*
!	!	!	!	!LO:TX:a:t=Solo	!	!LO:DY:rj	!	!	!	!	!	!	!	!	!	!	!	!	!	!	!	!	!	!	!	!	!	!	!	!	!	!	!	!	!	!	!	!	!	!
1r	.	1r	.	(4d/ 4F'/	4BB-\	p	(>4d/ 4B-'/	.	1r	.	1r	.	4BB-/	.	4d\ 4B-\	-bra-	1r	.	1r	.	1r	.	1ryy	.	1ryy	.	1ryy	.	(4F\ 4BB-'\	1r	.	4dd/	1r	p	1ryy	.	1ryy	.	1ryy	.
.	.	.	.	4d/ 4F'/	4BB-\	.	4d/ 4B-'/	.	.	.	.	.	4BB-/	.	4d\ 4B-\	-ni	.	.	.	.	.	.	.	.	.	.	.	.	4F\ 4BB-'\	.	.	4dd/	.	.	.	.	.	.	.	.
.	.	.	.	4d/ 4F'/	4BB-\	.	4d/ 4B-'/	.	.	.	.	.	4BB-/	.	4d\ 4B-\	dziś	.	.	.	.	.	.	.	.	.	.	.	.	4F\ 4BB-'\	.	.	4dd/	.	.	.	.	.	.	.	.
.	.	.	.	4d/ 4F'/)	4BB-\	.	4d/ 4B-'/)	.	.	.	.	.	4BB-/	.	4d\ 4B-\	pos-	.	.	.	.	.	.	.	.	.	.	.	.	4F\ 4BB-'\)	.	.	4dd/	.	.	.	.	.	.	.	.
*	*	*	*	*	*	*	*	*	*	*	*	*	*	*	*	*	*	*	*	*	*	*	*	*	*	*	*	*	*v	*v	*	*	*	*	*	*	*	*	*	*
=19	=19	=19	=19	=19	=19	=19	=19	=19	=19	=19	=19	=19	=19	=19	=19	=19	=19	=19	=19	=19	=19	=19	=19	=19	=19	=19	=19	=19	=19	=19	=19	=19	=19	=19	=19	=19	=19	=19	=19
*	*	*	*	*^	*	*	*^	*	*	*	*	*	*	*	*^	*	*	*	*	*	*	*	*	*	*	*	*	*	*	*	*	*	*	*	*	*	*	*	*
*	*	*	*	*	*	*2\right	*	*	*2\right	*	*	*	*	*	*	*	*	*2\right	*	*	*	*	*	*	*	*	*	*	*	*	*	*2\right	*	*	*2\right	*	*	*	*	*	*	*
1r	.	1r	.	4.f/	4.ryy	2F\ 2AA\	.	4.f/	2c\	.	1r	.	1r	.	2AA/	.	(4.f/	2c\	-po-	1r	.	1r	.	1ryy	.	1ryy	.	1ryy	.	1r	.	2F\ 2AA^\	.	(4.ff/	2cc\	.	1ryy	.	1ryy	.	1ryy	.
.	.	.	.	8e-/	8e-\	.	.	8e-/	.	.	.	.	.	.	.	.	8e-/	.	.	.	.	.	.	.	.	.	.	.	.	.	.	.	.	8ee-X/)	.	.	.	.	.	.	.	.
.	.	.	.	4d/	4d\	4F\ 4BB-\	.	4d/	4B-\	.	.	.	.	.	4BB-/	.	4d/)	4B-\	-łu	.	.	.	.	.	.	.	.	.	.	.	.	4F\ 4BB-\	.	4dd/	4dd\	.	.	.	.	.	.	.
.	.	.	.	4c/	4ryy	4F\	.	4A/	4A\	.	.	.	.	.	4F\	.	4c/	4A\	Skła-	.	.	.	.	.	.	.	.	.	.	.	.	4F/ 4FF/	.	4cc/	4a\	.	.	.	.	.	.	.
*	*	*	*	*v	*v	*	*	*	*	*	*	*	*	*	*	*	*	*	*	*	*	*	*	*	*	*	*	*	*	*	*	*	*	*	*	*	*	*	*	*	*	*
*	*	*	*	*	*	*	*v	*v	*	*	*	*	*	*	*	*	*	*	*	*	*	*	*	*	*	*	*	*	*	*	*	*	*	*	*	*	*	*	*	*	*
=20	=20	=20	=20	=20	=20	=20	=20	=20	=20	=20	=20	=20	=20	=20	=20	=20	=20	=20	=20	=20	=20	=20	=20	=20	=20	=20	=20	=20	=20	=20	=20	=20	=20	=20	=20	=20	=20	=20	=20	=20
*	*	*	*	*	*	*	*	*	*	*	*	*	*	*	*	*	*	*	*	*	*	*	*	*	*	*	*	*	*	*^	*	*	*	*	*	*	*	*	*	*
1r	.	1r	.	4B-/	4G\	.	4G/	.	1r	.	1r	.	4G\	.	4B-/	4G\	-da-	1r	.	1r	.	1ryy	.	1ryy	.	1ryy	.	1r	.	(4G\	4GG\	.	4b-X/	4g\	.	1ryy	.	1ryy	.	1ryy	.
.	.	.	.	4c/	4F\	.	4A/	.	.	.	.	.	4F\	.	4c/	4A\	-my	.	.	.	.	.	.	.	.	.	.	.	.	4F\	4FF\	.	4cc/	4a\	.	.	.	.	.	.	.
.	.	.	.	4d/	4BB-\	.	4B-/	.	.	.	.	.	4BB-/	.	4d/	4B-\	Ci	.	.	.	.	.	.	.	.	.	.	.	.	4G\	4BB-\	.	4dd\	4b-\	.	.	.	.	.	.	.
.	.	.	.	8f/L	4C\	.	4G/	.	.	.	.	.	4C/	.	8f/L	4G\	o-	.	.	.	.	.	.	.	.	.	.	.	.	4C/)	4C\	.	(8ff/L	4g\	.	.	.	.	.	.	.
.	.	.	.	8e-/J	.	.	.	.	.	.	.	.	.	.	8e-/J	.	.	.	.	.	.	.	.	.	.	.	.	.	.	.	.	.	8ee-X/J)	.	.	.	.	.	.	.	.
*	*	*	*	*	*	*	*	*	*	*	*	*	*	*	*	*	*	*	*	*	*	*	*	*	*	*	*	*	*	*v	*v	*	*	*	*	*	*	*	*	*	*
*	*	*	*	*	*	*	*	*	*	*	*	*	*	*	*	*	*	*	*	*	*	*	*	*	*	*	*	*	*	*	*	*v	*v	*	*	*	*	*	*	*
=21	=21	=21	=21	=21	=21	=21	=21	=21	=21	=21	=21	=21	=21	=21	=21	=21	=21	=21	=21	=21	=21	=21	=21	=21	=21	=21	=21	=21	=21	=21	=21	=21	=21	=21	=21	=21	=21	=21	=21
1r	.	1r	.	4.d/	(8F\L	.	4.B-/	.	1r	.	1r	.	(8F\L	.	(4.d/	4.B-\	-fia-	2r	.	2r	.	1ryy	.	1ryy	.	1ryy	.	1r	.	(8F\L	.	4.dd\ 4.b-X\	.	2ryy	.	1ryy	.	1ryy	.
.	.	.	.	.	8En\	.	.	.	.	.	.	.	8En\	.	.	.	.	.	.	.	.	.	.	.	.	.	.	.	.	8En\	.	.	.	.	.	.	.	.	.
.	.	.	.	.	8F\	.	.	.	.	.	.	.	8F\	.	.	.	.	.	.	.	.	.	.	.	.	.	.	.	.	8F\	.	.	.	.	.	.	.	.	.
.	.	.	.	8B-/	8G\J	.	8G/	.	.	.	.	.	8G\J)	.	8B-/)	8G\	.	.	.	.	.	.	.	.	.	.	.	.	.	8G\J	.	8b-\ 8g\	.	.	.	.	.	.	.
.	.	.	.	4c/	4F\)	.	4A/	.	.	.	.	.	4F\	.	4c/	4A\	-ry	4r	.	4r	.	.	.	.	.	.	.	.	.	4F\)	.	4cc\ 4a\	.	4ryy	.	.	.	.	.
*	*	*	*	*	*	*	*	*	*	*	*	*	*	*	*	*	*	*clefC3	*	*	*	*	*	*	*	*	*	*	*	*	*	*	*	*	*	*	*	*	*
.	.	.	.	4r	4r	.	4r	.	.	.	.	.	4r	.	4r	4r	.	4f\	.	4f/	Z je-	.	.	.	.	.	.	.	.	4r	.	4r	.	4f/	p	.	.	.	.
*	*	*	*	*v	*v	*	*	*	*	*	*	*	*	*	*v	*v	*	*	*	*	*	*	*	*	*	*	*	*	*	*	*	*	*	*	*	*	*	*	*
=22	=22	=22	=22	=22	=22	=22	=22	=22	=22	=22	=22	=22	=22	=22	=22	=22	=22	=22	=22	=22	=22	=22	=22	=22	=22	=22	=22	=22	=22	=22	=22	=22	=22	=22	=22	=22	=22
1r	.	1r	.	1r	.	1r	.	1r	.	1r	.	1r	.	1r	.	4B-/	.	4dd/ 4f/	-dne-	1ryy	.	1ryy	.	1ryy	.	1r	.	(4d\ 4B-'\	<	1r	.	(>4dd/ 4f'>/	<	1ryy	.	1ryy	.
.	.	.	.	.	.	.	.	.	.	.	.	.	.	.	.	4B-/	.	4dd/ 4f/	-go	.	.	.	.	.	.	.	.	4d\ 4B-'\	.	.	.	4dd/ 4f'>/	.	.	.	.	.
.	.	.	.	.	.	.	.	.	.	.	.	.	.	.	.	4B-/	.	4dd/ 4f/	Oj-	.	.	.	.	.	.	.	.	4d\ 4B-'\	.	.	.	4dd/ 4f'>/	.	.	.	.	.
.	.	.	.	.	.	.	.	.	.	.	.	.	.	.	.	4A/	.	4cc/ 4f#X/	-ca	.	.	.	.	.	.	.	.	4d\ 4A'\)	[[	.	.	4cc/ 4f#X'>/)	[[	.	.	.	.
!!LO:PB:g=original
=23	=23	=23	=23	=23	=23	=23	=23	=23	=23	=23	=23	=23	=23	=23	=23	=23	=23	=23	=23	=23	=23	=23	=23	=23	=23	=23	=23	=23	=23	=23	=23	=23	=23	=23	=23	=23	=23
*	*	*	*	*	*	*	*	*	*	*	*	*	*	*	*	*	*	*	*	*	*	*	*	*	*	*	*	*	*	*^	*	*	*	*	*	*	*
1r	.	1r	.	2r	.	2r	.	2r	.	2r	.	2r	.	2r	.	2G/	.	2b-/ 2g/	sto-	1r	.	1r	.	1r	.	1r	.	2d\ 2G\	.	(2gg/	1r	.	2b-/ 2g/	.	1r	.	1r	.
.	.	.	.	4r	.	4r	.	4r	.	4r	.	4r	.	4r	.	4c/	.	4a/ 4e-X/	-łu	.	.	.	.	.	.	.	.	4c\ 4C\	.	4gg/)	.	.	4a/ 4e-X/	.	.	.	.	.
.	.	.	.	.	p	.	.	.	.	.	.	.	.	.	.	.	.	.	.	.	.	.	.	.	.	.	.	.	.	.	.	.	.	.	.	.	.	.
.	.	.	.	(4c#X^<\	.	(4en\	.	[4g/	.	(>4a^/	p	4c#X\	Je-	4en\	.	4g\	.	4a/	Je-	.	.	.	.	.	.	.	.	4c#X\ 4C#X\	.	4gg/	.	.	4a/ 4en/	.	.	.	.	.
=24	=24	=24	=24	=24	=24	=24	=24	=24	=24	=24	=24	=24	=24	=24	=24	=24	=24	=24	=24	=24	=24	=24	=24	=24	=24	=24	=24	=24	=24	=24	=24	=24	=24	=24	=24	=24	=24	=24
*	*	*	*	*	*	*	*	*	*	*	*	*	*	*	*	*	*	*	*	*	*	*	*	*	*	*	*	*	*	*	*	*	*^	*	*	*	*	*
1r	.	1r	.	4d\)	.	4d\)	.	4g/]	.	4bn/)	.	4d\	-dna-	4d\	.	4g\	.	4bn/	-dna-	1r	.	1r	.	1r	.	1r	.	4d\ 4D\	.	4dd/	1r	.	4bn/ 4g/	2ryy	.	1r	.	1r	.
.	.	.	.	4d\	.	4d\	.	4g/	.	4b/	.	4d\	-kie	4d\	.	4g\	.	4b/	-kie	.	.	.	.	.	.	.	.	4d\ 4D\	.	4dd/	.	.	4b/ 4g/	.	.	.	.	.	.
.	.	.	.	.	.	.	.	.	.	(8qdd/	.	.	.	.	.	.	.	8qdd/	.	.	.	.	.	.	.	.	.	.	.	.	.	.	8qdd/	.	.	.	.	.	.
.	.	.	.	4D\	.	4d\	.	4f#X/	.	4cc/)	.	4D\	bie-	4d\	.	4f#X\	.	4cc/	bie-	.	.	.	.	.	.	.	.	4d\ 4D\	.	2dd/	.	.	4cc/	4f#X\	.	.	.	.	.
.	.	.	.	4D\	.	4c\	.	4f#/	.	4a/	.	4D\	-rzem	4c\	.	4f#\	.	4a/	-rzem	.	.	.	.	.	.	.	.	4c\ 4D\	.	.	.	.	4a/	4f#\	.	.	.	.	.
*	*	*	*	*	*	*	*	*	*	*	*	*	*	*	*	*	*	*	*	*	*	*	*	*	*	*	*	*	*	*v	*v	*	*	*	*	*	*	*	*
*	*	*	*	*	*	*	*	*	*	*	*	*	*	*	*	*	*	*	*	*	*	*	*	*	*	*	*	*	*	*	*	*v	*v	*	*	*	*	*
=25||	=25||	=25||	=25||	=25||	=25||	=25||	=25||	=25||	=25||	=25||	=25||	=25||	=25||	=25||	=25||	=25||	=25||	=25||	=25||	=25||	=25||	=25||	=25||	=25||	=25||	=25||	=25||	=25||	=25||	=25||	=25||	=25||	=25||	=25||	=25||	=25||	=25||
*k[bnenf#]	*	*k[bnenf#]	*	*k[bnenf#]	*	*k[bnenf#]	*	*k[bnenf#]	*	*k[bnenf#]	*	*k[bnenf#]	*	*k[bnenf#]	*	*k[bnenf#]	*	*k[bnenf#]	*	*k[bnenf#]	*	*k[bnenf#]	*	*k[bnenf#]	*	*k[bnenf#]	*	*k[bnenf#]	*	*k[]	*	*k[bnenf#]	*	*k[bnenf#]	*	*k[bnenf#]	*
*M6/8	*	*M6/8	*	*M6/8	*	*M6/8	*	*M6/8	*	*M6/8	*	*M6/8	*	*M6/8	*	*M6/8	*	*M6/8	*	*M6/8	*	*M6/8	*	*M6/8	*	*M6/8	*	*M6/8	*	*M6/8	*	*M6/8	*	*M6/8	*	*M6/8	*
*	*	*	*	*	*	*	*	*	*	*	*	*	*	*	*	*	*	*	*	*	*	*	*	*	*	*	*	*^	*	*^	*	*	*	*	*	*	*
4r	.	4r	.	(4D\	.	(4c^\	.	(4f#/	.	(4a^/	.	4D\	da-	4c\	.	4f#\	.	4a/	da-	4r	.	4r	.	4r	.	4r	.	4c\ 4D\	4ryy	.	4.dd/	4r	.	4a/ 4f#X/	.	4r	.	4r	.
8r	.	8r	.	8G\)	.	8B\)	.	8g/)	.	8g/)	.	8G\	-ry	8B\	.	8g\	.	8g/	-ry	8r	.	8r	.	8r	.	8r	.	8B\ 8G\	8ryy	.	.	8r	.	8g/	.	8r	.	8r	.
!	!	!	!LO:HP:b	!	!	!	!	!	!	!	!LO:HP:b	!	!	!	!	!	!	!	!	!	!	!	!	!	!	!	!	!	!	!	!	!	!	!	!	!	!	!	!
4r	.	4.G\	<[	4.G\	.	4G/	.	8.g/L	.	8.b/L	<	8r	.	8r	.	8r	.	8r	.	4G\	.	8.G/L	.	4g\	.	8.b/L 8.g/	.	8.B/L	4.G\	.	4r	4r	.	8.b/L 8.g/	.	8.gg\L	.	8.bb\L	<
.	.	.	.	.	.	.	.	.	.	.	.	8r	.	8r	.	8r	.	8r	.	.	.	.	.	.	.	.	.	.	.	.	.	.	.	.	.	.	.	.	.
.	.	.	.	.	.	.	.	16a/K	.	16cc/K	.	.	.	.	.	.	.	.	.	.	.	16A/K	.	.	.	16cc/K 16a/	.	16c/K	.	.	.	.	.	16cc/K 16a/	.	16aa\K	.	16ccc\K	.
!LO:SIC:s=8G\	!	!	!	!	!	!	!	!	!	!	!	!	!	!	!	!	!	!	!	!	!	!	!	!	!	!	!	!	!	!	!	!	!	!	!	!	!	!	!
8Re\	.	.	.	.	.	8g\	.	8b/J	.	8dd/J	[[	8G\	Spraw	8d\ 8B\	.	8g\	.	8dd\ 8b\	Spraw	8G\	.	8B/J	.	8g\	.	8dd/J 8b/	.	8d/J	.	.	8r	8r	.	8dd/J 8b/	.	8bb\J	.	8ddd\J	[[
=26	=26	=26	=26	=26	=26	=26	=26	=26	=26	=26	=26	=26	=26	=26	=26	=26	=26	=26	=26	=26	=26	=26	=26	=26	=26	=26	=26	=26	=26	=26	=26	=26	=26	=26	=26	=26	=26	=26	=26
*	*	*	*	*	*	*	*	*	*	*	*	*	*	*	*	*	*	*	*	*	*	*	*	*	*	*^	*	*	*	*	*	*	*	*^	*	*	*	*	*
!LO:SIC:s=4c/	!	!	!LO:DY:rj:b	!	!	!	!	!	!LO:DY:a	!	!	!	!	!	!	!	!	!	!	!	!	!	!	!	!	!	!	!	!	!	!	!	!	!	!	!	!	!	!	!	!
4Re/	.	8.C\L	f	(8D\yy	.	4g\	.	4cc\	f	(4ee\	.	8.C/L	Bo-	4e\ 4c\	.	4g\	.	4ee\ 4cc\	Bo-	8.C\L	.	4c\	.	4g\	.	4ee\	4cc\	.	4.e\	8.C\L	.	4gg\ 4g\	4.ryy	.	4ee/	4cc\	.	(4ccc\	.	(4eee\	f
.	.	.	.	4G\)yy	.	.	.	.	.	.	.	.	.	.	.	.	.	.	.	.	.	.	.	.	.	.	.	.	.	.	.	.	.	.	.	.	.	.	.	.	.
.	.	16E\K	.	.	.	.	.	.	.	.	.	16E/Jk	.	.	.	.	.	.	.	16E\K	.	.	.	.	.	.	.	.	.	16E\K	.	.	.	.	.	.	.	.	.	.	.
8r	.	8G\J	.	.	.	8g\	.	8b\	.	8dd\)	.	8G\	-że	8d\ 8B\	.	8g\	.	8dd\ 8b\	-że	8G\J	.	8B\	.	8g\	.	8dd\	8b\	.	.	8G\J	.	8gg\ 8g\	.	.	8dd/	8b\	.	8bb\)	.	8ddd\)	.
4r	.	4F#\	.	4.G\yy	.	4f#\	.	4a/ 4d/	.	(8dd\L	.	4F#\	byś-	4d\	.	4a\	.	8dd\L	byś-	4F#\	.	4A/	.	4f#\	.	8dd/L	4a\	.	4.ryy	(4F#\	.	4dd/	4dd\	.	8dd/L	4a\	.	4aa\	.	(8ddd\L	.
.	.	.	.	.	.	.	.	.	.	8cc\	.	.	.	.	.	.	.	8cc\J	.	.	.	.	.	.	.	8cc/	.	.	.	.	.	.	.	.	8cc/	.	.	.	.	8ccc\	.
8r	.	8G\	.	.	.	8g\	.	8g/	.	8b\J)	.	8G\	-my	8d\	.	8g\	.	8b\	-my	8G\	.	8G/	.	8g\	.	8b/J	8g\	.	.	8G\)	.	8dd/	8dd\	.	8b/J	8g\	.	8gg\	.	8bb\J)	.
*	*	*	*	*	*	*	*	*	*	*	*	*	*	*	*	*	*	*	*	*	*	*	*	*	*	*	*	*	*v	*v	*	*	*	*	*	*	*	*	*	*	*
!!LO:PB:g=original
=27	=27	=27	=27	=27	=27	=27	=27	=27	=27	=27	=27	=27	=27	=27	=27	=27	=27	=27	=27	=27	=27	=27	=27	=27	=27	=27	=27	=27	=27	=27	=27	=27	=27	=27	=27	=27	=27	=27	=27	=27
!	!	!	!	!	!	!	!	!	!	!	!	!	!	!	!	!	!	!	!	!	!	!	!	!	!	!	!	!LO:HP:a	!	!	!	!	!	!	!	!	!	!	!LO:TX:a:t=col Vo. Io. 8va	!
2.r	.	8C\L	.	2.r	.	4.e\	.	4.e/	.	(8.a/L	.	4.c\ 4.C\	zgo-	4.e\	.	4.e\	.	(8.a/L	zgo-	4.C^>/	.	4.A^\	.	4.e\	.	(8.a/L	4.e\	>	(>(>4.c\ 4.C\	.	4.ee/	4.cc\	.	8.a/L	4.e\	.	4.ee\	.	8.aa\Lyy	.
.	.	8c\	.	.	.	.	.	.	.	.	.	.	.	.	.	.	.	.	.	.	.	.	.	.	.	.	.	.	.	.	.	.	.	.	.	.	.	.	.	.
.	.	.	.	.	.	.	.	.	.	32b/LL	.	.	.	.	.	.	.	32b/LL	.	.	.	.	.	.	.	32b/LL	.	.	.	.	.	.	.	32b/LL	.	.	.	.	32bb\LLyy	.
.	.	.	.	.	.	.	.	.	.	32a/JJJ	.	.	.	.	.	.	.	32a/JJJ	.	.	.	.	.	.	.	32a/JJJ	.	]	.	.	.	.	.	32a/JJJ	.	.	.	.	32aa\Jyy	.
.	.	8c\J	.	.	.	.	.	.	.	16g/LL	.	.	.	.	.	.	.	16g/LL	.	.	.	.	.	.	.	16g/LL	.	.	.	.	.	.	.	16g/LL	.	.	.	.	16gg\yy	.
.	.	.	.	.	.	.	.	.	.	16a/JJ)	.	.	.	.	.	.	.	16a/JJ	.	.	.	.	.	.	.	16a/JJ	.	.	.	.	.	.	.	16a/JJ	.	.	.	.	16aa\JJyy	.
.	.	8B~\L	.	.	.	4d#X\	.	4f#/	.	4b/	.	4B\ 4BB\	-dni	4d#X\	.	4f#X\	.	4b/)	-dni	4BB/	.	4B\	.	4d#X\	.	4b/)	4f#\	.	8B\L 8BB'\))	.	4dd#X/	4b\	.	4b/	4f#\	.	4dd#X\	.	4bb\yy	.
.	.	(8B\	.	.	.	.	.	.	.	.	.	.	.	.	.	.	.	.	.	.	.	.	.	.	.	.	.	.	(8B\ 8BB\	.	.	.	.	.	.	.	.	.	.	.
.	.	8A\J)	.	.	.	8dn\	.	8f#/	.	8cc/	.	8A\	Jak	8dn\	.	8f#\	.	8cc/	Jak	8r	.	8r	.	8dn\	.	8cc/	8f#\	.	8A\J 8AA\)	.	8ddn/	8a\	.	8cc/	8f#\	.	8ddn\	.	8ccc\yy	.
=28	=28	=28	=28	=28	=28	=28	=28	=28	=28	=28	=28	=28	=28	=28	=28	=28	=28	=28	=28	=28	=28	=28	=28	=28	=28	=28	=28	=28	=28	=28	=28	=28	=28	=28	=28	=28	=28	=28	=28	=28
2.r	.	(8G\L	.	2.r	.	(8d\L	.	4g/	.	(8b\L	.	8G\L	bra-	8c\L	.	4g\	.	(8b\L	bra-	2.r	.	2.r	.	2.r	.	8b/	4g\	.	8G\L 8GG'\	.	8dd/L 8g/	4.ryy	.	8b/L	[>4.g\	.	(4.gg\	.	8bb\Lyy	.
.	.	8c\	.	.	.	8c\	.	.	.	8ee\J	.	8c\J	.	8e\J	.	.	.	8ee\J)	.	.	.	.	.	.	.	(8ee\L 8cc\	.	.	(8c\ 8C\	.	8ee/ 8cc/	.	.	8ee/	.	.	.	.	8eee\yy	.
.	.	8B\J)	.	.	.	8d\J)	.	8g/	.	8dd\)	.	8B\	-cia	8d\	.	8g\	.	8dd\	-cia	.	.	.	.	.	.	8dd\J) 8g\	8ryy	.	8B\J 8BB\	.	8dd/J 8g/	.	.	[8dd/J	.	.	.	.	8ddd\Jyy	.
.	.	(8B\L	.	.	.	4.d\	.	(8g/L	.	(8dd\L	.	8B\L	wie-	8d\L	.	8g\L	.	(8dd\L	wie-	.	.	.	.	.	.	8dd/L	8g\L	.	8B\L 8BB\)	.	4dd/ 4g/	8g\L	.	8dd/L]	8g\L]	.	8gg\L	.	8ddd\Lyy	.
.	.	8A\	.	.	.	.	.	8f#/	.	8cc\	.	8A\J	.	8c\J	.	8f#\J	.	8cc\J)	.	.	.	.	.	.	.	8cc/	8f#\	.	(8A\ 8AA\	.	.	8f#X\	.	8cc/	8f#\	.	8ff#\	.	8ccc\yy	.
.	.	8G\J	.	.	.	.	.	8g/J)	.	8b\J)	.	8G\	-cznie	8B\	.	8g\	.	8b\	-cznie	.	.	.	.	.	.	8b/J	8g\J	.	8G\J 8GG\)	.	8dd/ 8g/	8g\J	.	8b/J	8g\J	.	8gg\J	.	8bb\Jyy	.
*	*	*	*	*	*	*	*	*	*	*	*	*	*	*	*	*	*	*	*	*	*	*	*	*	*	*v	*v	*	*	*	*	*	*	*v	*v	*	*	*	*	*
=29	=29	=29	=29	=29	=29	=29	=29	=29	=29	=29	=29	=29	=29	=29	=29	=29	=29	=29	=29	=29	=29	=29	=29	=29	=29	=29	=29	=29	=29	=29	=29	=29	=29	=29	=29	=29	=29	=29
!LO:SIC:s=32G\LLL	!	!	!	!	!	!	!	!	!	!	!	!	!	!	!	!	!	!	!	!	!	!	!	!	!	!	!	!	!	!	!	!	!	!	!	!	!	!
32Re\	.	(4.G\)	.	2.r	.	[4.d\	.	(8.g/L	.	(8.b\L	.	4.G\	ży-	4.d\	.	(8.g\L	.	(8.b\L	ży-	4r	.	4r	.	4r	.	(8.b/L 8.g/	.	(>(>4.G/ 4.GG/	.	4.dd/ 4.g/	4.ryy	.	(8.b/L 8.g/	.	(8.gg\L)	.	8.bb\Lyy	.
!LO:SIC:s=32G\	!	!	!	!	!	!	!	!	!	!	!	!	!	!	!	!	!	!	!	!	!	!	!	!	!	!	!	!	!	!	!	!	!	!	!	!	!	!
32Re\	.	.	.	.	.	.	.	.	.	.	.	.	.	.	.	.	.	.	.	.	.	.	.	.	.	.	.	.	.	.	.	.	.	.	.	.	.	.
!LO:SIC:s=32G\	!	!	!	!	!	!	!	!	!	!	!	!	!	!	!	!	!	!	!	!	!	!	!	!	!	!	!	!	!	!	!	!	!	!	!	!	!	!
32Re\	.	.	.	.	.	.	.	.	.	.	.	.	.	.	.	.	.	.	.	.	.	.	.	.	.	.	.	.	.	.	.	.	.	.	.	.	.	.
!LO:SIC:s=32G\	!	!	!	!	!	!	!	!	!	!	!	!	!	!	!	!	!	!	!	!	!	!	!	!	!	!	!	!	!	!	!	!	!	!	!	!	!	!
32Re\	.	.	.	.	.	.	.	.	.	.	.	.	.	.	.	.	.	.	.	.	.	.	.	.	.	.	.	.	.	.	.	.	.	.	.	.	.	.
!LO:SIC:s=32G\	!	!	!	!	!	!	!	!	!	!	!	!	!	!	!	!	!	!	!	!	!	!	!	!	!	!	!	!	!	!	!	!	!	!	!	!	!	!
32Re\	.	.	.	.	.	.	.	.	.	.	.	.	.	.	.	.	.	.	.	.	.	.	.	.	.	.	.	.	.	.	.	.	.	.	.	.	.	.
!LO:SIC:s=32G\	!	!	!	!	!	!	!	!	!	!	!	!	!	!	!	!	!	!	!	!	!	!	!	!	!	!	!	!	!	!	!	!	!	!	!	!	!	!
32Re\	.	.	.	.	.	.	.	.	.	.	.	.	.	.	.	.	.	.	.	.	.	.	.	.	.	.	.	.	.	.	.	.	.	.	.	.	.	.
!LO:SIC:s=32G\	!	!	!	!	!	!	!	!	!	!	!	!	!	!	!	!	!	!	!	!	!	!	!	!	!	!	!	!	!	!	!	!	!	!	!	!	!	!
32Re\	.	.	.	.	.	.	.	16a/L	.	16cc\L	.	.	.	.	.	16a\L	.	16cc\L	.	.	.	.	.	.	.	16cc/L 16a/	.	.	.	.	.	.	16cc/L 16a/	.	16aa\L	.	16ccc\Lyy	.
!LO:SIC:s=32G\	!	!	!	!	!	!	!	!	!	!	!	!	!	!	!	!	!	!	!	!	!	!	!	!	!	!	!	!	!	!	!	!	!	!	!	!	!	!
32Re\	.	.	.	.	.	.	.	.	.	.	.	.	.	.	.	.	.	.	.	.	.	.	.	.	.	.	.	.	.	.	.	.	.	.	.	.	.	.
!LO:SIC:s=32G\	!	!	!	!	!	!	!	!	!	!	!	!	!	!	!	!	!	!	!	!	!	!	!	!	!	!	!	!	!	!	!	!	!	!	!	!	!	!
32Re\	.	.	.	.	.	.	.	16a#X/	.	16cc#X\	.	.	.	.	.	16a#X\	.	16cc#X\	.	8r	.	8r	.	8r	.	16cc#X/ 16a#X/	.	.	.	.	.	.	16cc#X/ 16a#X/	.	16aa#X\	.	16ccc#X\yy	.
!LO:SIC:s=32G\	!	!	!	!	!	!	!	!	!	!	!	!	!	!	!	!	!	!	!	!	!	!	!	!	!	!	!	!	!	!	!	!	!	!	!	!	!	!
32Re\	.	.	.	.	.	.	.	.	.	.	.	.	.	.	.	.	.	.	.	.	.	.	.	.	.	.	.	.	.	.	.	.	.	.	.	.	.	.
!LO:SIC:s=32G\	!	!	!	!	!	!	!	!	!	!	!	!	!	!	!	!	!	!	!	!	!	!	!	!	!	!	!	!	!	!	!	!	!	!	!	!	!	!
32Re\	.	.	.	.	.	.	.	16b/JJ	.	16dd\JJ)	.	.	.	.	.	16b\JJ)	.	16dd\JJ)	.	.	.	.	.	.	.	16dd/JJ 16b/)	.	.	.	.	.	.	16dd/JJ 16b/	.	16bb\JJ)	.	16ddd\JJyy	.
!LO:SIC:s=32G\JJJ	!	!	!	!	!	!	!	!	!	!	!	!	!	!	!	!	!	!	!	!	!	!	!	!	!	!	!	!	!	!	!	!	!	!	!	!	!	!
32Re\	.	.	.	.	.	.	.	.	.	.	.	.	.	.	.	.	.	.	.	.	.	.	.	.	.	.	.	.	.	.	.	.	.	.	.	.	.	.
!LO:SIC:s=4G\	!	!	!	!	!	!	!	!	!	!	!	!	!	!	!	!	!	!	!	!	!	!	!	!	!	!	!	!	!	!	!	!	!	!	!	!	!	!
4Re\	.	4D\)	.	.	.	4d\]	.	4f#/)	.	4a/	.	4D\	-li	4d\	.	4f#\	.	4a/	li	4r	.	4r	.	4r	.	4a#/ 4f#/	.	4D/ 4DD/))	.	4dd/	4dd\	.	4a#/ 4f#/)	.	4ff#\	.	4aa\yy	.
!	!	!LO:TX:a:t=|	!	!	!	!	!	!	!	!	!	!	!	!	!	!	!	!	!	!	!	!	!	!	!	!	!	!	!	!	!	!	!	!	!	!	!	!
8r	.	8B\	.	.	.	8B/	.	8g/	.	8dd\	.	8B\	O-	8d\	.	8g\	.	8dd\	O-	8BB/	.	8B\	.	8g\	.	8dd/ 8g/	.	8B\ 8BB\	.	8dd/ 8g/	8g\	.	8dd/ 8g/	.	8gg\	.	8ddd\yy	.
=30	=30	=30	=30	=30	=30	=30	=30	=30	=30	=30	=30	=30	=30	=30	=30	=30	=30	=30	=30	=30	=30	=30	=30	=30	=30	=30	=30	=30	=30	=30	=30	=30	=30	=30	=30	=30	=30	=30
*	*	*	*	*	*	*	*	*	*	*	*	*	*	*	*	*	*	*	*	*	*	*	*	*	*	*^	*	*	*	*	*	*	*^	*	*	*	*	*
4r	.	(4c\	.	2.r	.	(4c/	.	(4.g/	.	4ee\	.	4c\	-fia-	4e\	.	4g\	.	4ee\	-fia-	(>4C/	.	(>4c\	.	4g\	.	4ee/	4cc\	.	(4c\ 4C\	.	4ee/	4cc\	.	4ee/	4g\	.	4gg\	.	4eee\yy	.
!	!	!	!	!	!	!	!	!	!	!	!	!	!	!	!	!	!	!	!	!	!	!	!	!	!	!	!	!	!	!	!	!LO:N:xstem	!	!	!	!	!	!	!	!
8r	.	8B\	.	.	.	8B/	.	.	.	8dd\	.	8B\	-ry	8d\	.	8g\	.	8dd\	-ry	8BB/)	.	8B\)	.	8g\	.	8dd/ 8g/	8ryy	.	8B\ 8BB\)	.	8dd/	8g/	.	8dd/	8g\	.	8gg\	.	8ddd\yy	.
!	!	!	!	!	!	!	!	!	!	!LO:TUP:a:problem:klamra łukowa	!	!	!	!	!	!	!	!LO:TUP:a:problem:klamra łukowa	!	!	!	!	!	!	!	!	!	!	!	!	!	!	!	!	!	!	!	!	!	!
4r	.	4A\	.	.	.	4A/	.	4f#/	.	24dd\LL	.	4A\	Two-	4d\	.	4f#\	.	24dd\LL	Two-	(>4AA/	.	(>4A/	.	(4f#\	.	16dd/LL	4f#\	.	(4A\ 4AA\	.	4dd/	4f#X\	.	16dd/LL	4f#\	.	(4ff#\	.	24ddd\LLyy	.
.	.	.	.	.	.	.	.	.	.	24ee\	.	.	.	.	.	.	.	24ee\	.	.	.	.	.	.	.	.	.	.	.	.	.	.	.	.	.	.	.	.	24eee\yy	.
.	.	.	.	.	.	.	.	.	.	.	.	.	.	.	.	.	.	.	.	.	.	.	.	.	.	32ee/L	.	.	.	.	.	.	.	32ee/L	.	.	.	.	.	.
.	.	.	.	.	.	.	.	.	.	24dd\JJ	.	.	.	.	.	.	.	24dd\J	.	.	.	.	.	.	.	.	.	.	.	.	.	.	.	.	.	.	.	.	24ddd\Jyy	.
.	.	.	.	.	.	.	.	.	.	.	.	.	.	.	.	.	.	.	.	.	.	.	.	.	.	32dd/JJJ	.	.	.	.	.	.	.	32dd/JJJ	.	.	.	.	.	.
!	!	!	!	!	!	!	!	!	!	!	!	!	!	!	!	!	!	!	!	!	!	!	!	!	!	!LO:N:n=2:xstem	!	!	!	!	!	!	!	!	!	!	!	!	!	!
.	.	.	.	.	.	.	.	.	.	8cc\L	.	.	.	.	.	.	.	8cc\J	.	.	.	.	.	.	.	8cc/L 8g/	.	.	.	.	.	.	.	8cc/L	.	.	.	.	8ccc\yy	.
!LO:SIC:s=8G\	!	!	!	!	!	!	!	!	!	!	!	!	!	!	!	!	!	!	!	!	!	!	!	!	!	!	!	!	!	!	!	!	!	!	!	!	!	!	!	!
8Re\	.	8G\)	.	.	.	8G/)	.	8g/)	.	8b\J	.	8G\	-iej	8d\	.	8g\	.	8b\	-iej	8GG/)	.	8G/)	.	8g\)	.	8b/J	8g\	.	8G\ 8GG\)	.	8dd/	8g\	.	8b/J	8g\	.	8gg\)	.	8bb\Jyy	.
*	*	*	*	*	*	*	*	*	*	*	*	*	*	*	*	*	*	*	*	*	*	*	*	*	*	*v	*v	*	*	*	*	*	*	*	*	*	*	*	*	*
!!LO:PB:g=original
=31	=31	=31	=31	=31	=31	=31	=31	=31	=31	=31	=31	=31	=31	=31	=31	=31	=31	=31	=31	=31	=31	=31	=31	=31	=31	=31	=31	=31	=31	=31	=31	=31	=31	=31	=31	=31	=31	=31	=31
*	*	*	*	*	*	*	*	*tremolo	*	*tremolo	*	*	*	*	*	*	*	*	*	*	*	*	*	*	*	*	*	*	*	*	*	*	*	*	*	*	*	*	*
2.r	.	(4C\	.	4C\	.	(4c^<\	.	16cc\LL	.	16ee\LL 16g\	.	(4C\	go-	4.e\ 4.c\	.	4.g\	.	4.ee\	go-	4C\	.	4.c^\	.	4.g^\	.	4.cc/ 4.d/	.	4C/ 4CC/	.	4.ee/	4.cc\	.	4.ee/	4g\	.	4.gg\	.	(4.eee\	.
.	.	.	.	.	.	.	.	16cc\	.	16ee\ 16g\	.	.	.	.	.	.	.	.	.	.	.	.	.	.	.	.	.	.	.	.	.	.	.	.	.	.	.	.	.
.	.	.	.	.	.	.	.	16cc\	.	16ee\ 16g\	.	.	.	.	.	.	.	.	.	.	.	.	.	.	.	.	.	.	.	.	.	.	.	.	.	.	.	.	.
.	.	.	.	.	.	.	.	16cc\	.	16ee\ 16g\	.	.	.	.	.	.	.	.	.	.	.	.	.	.	.	.	.	.	.	.	.	.	.	.	.	.	.	.	.
.	.	8E\	.	8E\	.	8e\	.	16cc\	.	16ee\ 16g\	.	8E\	.	.	.	.	.	.	.	8E\	.	.	.	.	.	.	.	8E/ 8EE/	.	.	.	.	.	8cc\	.	.	.	.	.
.	.	.	.	.	.	.	.	16cc\JJ	.	16ee\JJ 16g\	.	.	.	.	.	.	.	.	.	.	.	.	.	.	.	.	.	.	.	.	.	.	.	.	.	.	.	.	.
*	*	*	*	*	*	*	*	*Xtremolo	*	*Xtremolo	*	*	*	*	*	*	*	*	*	*	*	*	*	*	*	*	*	*	*	*	*	*	*	*	*	*	*	*	*
.	.	4G\)	.	4G\	.	4g\)	.	4b\	.	4dd\ 4g\	.	4G\)	-dni	4d\ 4B\	.	4g\	.	4dd\	-dni	4G\	.	4B\	.	4g\	.	4b/ 4d/	.	4G/ 4GG/	.	4dd\	4g\	.	4dd/	4b\	.	4gg\	.	4ddd\)	.
!	!	!	!	!	!	!	!	!	!	!	!	!	!	!	!	!	!	!	!	!	!	!	!	!	!	!	!	!	!	!	!	!	!	!	!	!	!LO:DY:a	!	!
.	.	.	.	.	.	.	.	.	.	.	.	.	.	.	.	.	.	.	.	.	.	.	.	.	.	.	.	.	.	.	.	.	.	.	.	.	p	.	.
.	.	8ryy	.	8G#X\	.	8e\	.	8b\	.	8ee\	.	8r	.	8r	.	8g#X\	.	8ee\ 8b\	Na-	8r	.	8r	.	8r	.	8r	.	8g#X\ 8G#X\	.	8r	8r	.	8ee\	8b\	.	8bb\	.	8eee\	.
*	*	*	*	*	*	*	*	*	*	*	*	*	*	*	*	*	*	*	*	*	*	*	*	*	*	*	*	*	*	*v	*v	*	*	*	*	*	*	*	*
=32	=32	=32	=32	=32	=32	=32	=32	=32	=32	=32	=32	=32	=32	=32	=32	=32	=32	=32	=32	=32	=32	=32	=32	=32	=32	=32	=32	=32	=32	=32	=32	=32	=32	=32	=32	=32	=32	=32
2.r	.	2.yy/	.	(4A\	.	4e\	.	4a/	.	(4cc\	.	2.r	.	2.r	.	4a\	.	4cc\ 4a\	-u-	2.r	.	2.r	.	2.r	.	2.r	.	4a\ 4A\	.	2.r	.	4cc/	4.a\	.	4.aa\	.	(4ccc\	.
.	.	.	.	8F#\)	.	8d\	.	8a/	.	8dd\	.	.	.	.	.	8f#\	.	8dd\ 8a\	-ki	.	.	.	.	.	.	.	.	(8f#\ 8F#\	.	.	.	8dd/	.	.	.	.	8ddd\)	.
.	.	.	.	(8G\L	.	4d\	.	4g/	.	4b\)	.	.	.	.	.	8g\L	.	4b\	Twe	.	.	.	.	.	.	.	.	8g\L 8G\	.	.	.	(4b/	4g\	.	4gg\	.	4bb\	.
.	.	.	.	8Fn\	.	.	.	.	.	.	.	.	.	.	.	8fn\J	.	.	.	.	.	.	.	.	.	.	.	8fn\ 8Fn\	.	.	.	.	.	.	.	.	.	.
.	.	.	.	16E\L	.	8e\	.	16g/LL	.	(16dd\LL	.	.	.	.	.	(16e\LL	.	(16dd\LL 16g\	peł-	.	.	.	.	.	.	.	.	16e\L 16E\	.	.	.	16dd/LL	16g\LL	.	((16gg\LL	.	(16ddd\LL	.
.	.	.	.	16C\JJ)	.	.	.	16a/JJ	.	16cc\JJ)	.	.	.	.	.	16c\JJ)	.	16cc\JJ 16a\)	.	.	.	.	.	.	.	.	.	16c\JJ 16C\	.	.	.	16cc/JJ	16a\JJ	.	16aa\JJ))	.	16ccc\JJ)	.
=33	=33	=33	=33	=33	=33	=33	=33	=33	=33	=33	=33	=33	=33	=33	=33	=33	=33	=33	=33	=33	=33	=33	=33	=33	=33	=33	=33	=33	=33	=33	=33	=33	=33	=33	=33	=33	=33	=33
2.r	.	4ryy	.	(4D/	.	(4d\	.	4g/	.	(4b/	.	4r	.	4r	.	(4d\	.	(>4b/ 4g/	-ni-	4r	.	4r	.	4r	.	4r	.	4d\ 4D\)	.	4r	.	4b/)	4g\	.	(4gg\	.	(4bb\	.
.	.	8ryy	.	8Cn/	.	8d\ 8c\	.	8f#/	.	8a/)	.	8r	.	8r	.	8c\)	.	8a/ 8f#/)	.	8r	.	8r	.	8r	.	8r	.	8cn\ 8Cn\	.	8r	.	8a/	8f#\	.	8ff#\	.	8aa\)	.
.	.	4ryy	.	4BB/)	.	4d\ 4B\)	.	4g/	.	4dd\	.	4r	.	4r	.	4B/	.	4dd/ 4g/	-li	4r	.	4r	.	4r	.	4r	.	4B\ 4BB\	.	4r	.	4dd/	4g\	.	4gg\)	.	4ddd\	.
.	.	(>8BB^/	.	8BB/	.	(8d#X\	.	8g^/	.	(8dd#X^<\	.	8BB/	Na-	8d#X\ 8G\	.	8g\	.	8dd#X\	Na-	8B\ 8BB\	.	8d#X\	.	8g\	.	8dd#X/ 8g/	.	8B\ 8BB\	.	8gg\ 8g\	.	8dd#X/	8g\	.	8gg\	.	8ddd#X\	.
=34	=34	=34	=34	=34	=34	=34	=34	=34	=34	=34	=34	=34	=34	=34	=34	=34	=34	=34	=34	=34	=34	=34	=34	=34	=34	=34	=34	=34	=34	=34	=34	=34	=34	=34	=34	=34	=34	=34
*	*	*	*	*	*	*	*	*	*	*	*	*	*	*^	*	*	*	*	*	*^	*	*	*	*	*	*^	*	*	*	*	*	*	*	*	*	*	*	*
2.r	.	4C/)	.	(4D/yy	.	4e\ 4c\)	.	4g/	.	4ee\)	.	4C/	-u-	4e\ 4G\	4ryy	.	4g\	.	4ee\	-u-	4c\ 4C\	2ryy	.	4e\	.	4g\	.	4ee/ 4g/	4ryy	.	4c\ 4C\	.	4ee\ 4cc\	.	4ee/	4g\	.	4gg\	.	4eee\	.
.	.	8C#X/	.	8Cn/yy	.	(8e\ 8c#X\	.	8g/	.	(8a#X/	.	8C#X/	-ki	8e\ 8G\	8ryy	.	8g\	.	8a#X/	-ki	8c#X\ 8C\	.	.	8A#X\	.	8g\	.	8a#X/ 8e/	8ryy	.	8c#X\ 8C#X\	.	8ee\ 8cc#X\	.	8a#X/	8g\	.	8gg\	.	8aa#X\	.
.	.	4D/	.	4BB/)yy	.	4d\	.	(4g/	.	8b/L	.	4D\	Twe	4d/	8G\L	.	4g\	.	(8b/L	Twe	4d\ 4D\	.	.	8B\	.	4g\	.	8b/L	4g\	.	4d\ 4D\	.	4dd\	.	(8b/L	4g\	.	4gg\	.	(8bb\L	.
.	.	.	.	.	.	.	.	.	.	8an/	.	.	.	.	8A\J	.	.	.	8an/J)	.	.	8ryy	.	4An\	.	.	.	8an/	.	.	.	.	.	.	8an/)	.	.	.	.	8aan\)	.
.	.	8D/	.	8BB/yy	.	8d\)	.	8f#/)	.	8dd/J)	.	8D\	peł-	8d/	8A\	.	8f#\	.	8dd\	peł-	8D/	8D\	.	.	.	8f#\	<	8dd/J	8f#\	.	8d\ 8D\	.	8dd\	.	8dd/J	8f#\	.	8ff#\	.	8ddd'\J	.
*	*	*	*	*	*	*	*	*	*	*	*	*	*	*v	*v	*	*	*	*	*	*v	*v	*	*	*	*	*	*	*	*	*	*	*	*	*	*	*	*	*	*	*
=35	=35	=35	=35	=35	=35	=35	=35	=35	=35	=35	=35	=35	=35	=35	=35	=35	=35	=35	=35	=35	=35	=35	=35	=35	=35	=35	=35	=35	=35	=35	=35	=35	=35	=35	=35	=35	=35	=35	=35
*	*	*	*	*	*	*	*	*	*	*	*	*	*	*	*	*	*	*	*	*	*	*	*	*	*	*	*	*	*	*	*^	*	*	*	*	*	*	*	*
2.r	.	8E\	.	(4D/	.	8e\	.	8g/L	.	8b\	.	8E\	-ni-	8B\ 8G\	.	8g\	.	8b\	-ni-	8E\	.	8B\L	.	8g\L	.	8b/L	8g\L	.	8e\ 8E\	.	8gg\L 8g\	4.ryy	.	8b/L	8g\L	.	8gg\L	<	8bb'\L	<
.	.	8BB/L	.	.	.	8d\L 8B\	.	8g/	.	(8dd\L	.	8BB/	-li	8d\ 8G\	.	8g\	.	8dd\	-li	8BB/L	.	8d\	.	8g\	.	8dd/	8g\	.	8B\L 8BB\	.	8gg\ 8g\	.	.	8dd/	8g\	.	8gg\	.	8ddd'\	.
.	.	8BB/J	.	8Cn/	.	8d#X\J 8B\	.	8g/J	.	8dd#X\J	.	8BB/	na-	8d#X\ 8G\	.	8g\	.	8dd#X\	Na-	8BB/J	.	8d#X\J	.	8g\J	.	8dd#X/J	8g\J	.	8B\J 8BB\	.	8gg\J 8g\	.	.	8dd#X/J	8g\J	.	8gg\J	.	8ddd#X'\J	.
.	.	4C/	.	4BB/)	.	4e\ 4c\	.	4g/	.	4ee\)	.	4C/	-u-	4e\ 4G\	.	4g\	.	4ee\	-u-	4C/	.	4e\	.	4g\	[	4ee/	4g\	.	4c\ 4C\	.	4ee/	4cc\	.	4ee/	4g\	.	4gg\	.	4eee\	.
.	.	8C#X^/	.	8BB/	.	8e\ 8c#X\	.	8a#X/	.	8gg^<\	.	8C#X/	-ki	8e\ 8G\	.	8a#X\	.	8gg\	-ki	8C#X/	.	8A#X\	.	8g\	.	8gg/	8a#X\	.	8c#X\ 8C#X\	.	8ee/	8cc#X\	.	8ee/	8a#X\	.	8aa#X^\	[	8ggg\	[
!!LO:PB:g=original
=36	=36	=36	=36	=36	=36	=36	=36	=36	=36	=36	=36	=36	=36	=36	=36	=36	=36	=36	=36	=36	=36	=36	=36	=36	=36	=36	=36	=36	=36	=36	=36	=36	=36	=36	=36	=36	=36	=36	=36	=36
4r	.	4D\	.	4D\	.	8.d\L	.	8.b/L	.	8.dd\L	.	4D\	Twe	8.d\L 8.B\	.	8.b\L	Twe	8.dd\L	Twe	4D\	.	8.d\L	.	8.b\L	.	8.dd/L 8.b/	4.ryy	.	4d\ 4D\	.	4dd/	4dd\	.	8.dd\L 8.b\	4.ryy	.	8.bb\L	.	8.ddd\L	.
.	.	.	.	.	.	16c\K	.	16a/K	.	16cc\K	.	.	.	16c\Jk 16A\	.	16a\Jk	.	16cc\Jk	.	.	.	16c\K	.	16a\K	.	16cc/K 16a/	.	.	.	.	.	.	.	16cc\K 16a\	.	.	16aa\K	.	16ccc\K	.
8r	.	8D\	.	8D\	.	8B\J	.	8g/J	.	8b\J	.	8D\	peł-	8B\ 8G\	.	8g\	peł-	8b\	peł-	8D\	.	8B\J	.	8g\J	.	8b/J 8g/	.	.	8d\ 8D\	.	8dd/	8dd\	.	8b\J 8g\	.	.	8gg\J	.	8bb\J	.
!LO:SIC:s=4.GT\	!	!	!	!	!	!	!	!	!	!	!	!	!	!	!	!	!	!	!	!	!	!	!	!	!	!	!	!	!	!	!	!	!	!	!	!	!	!	!	!
4.Re\	.	4.D\	.	4.D\	.	4.A/	.	4g/	.	4a\	.	4.D\	-ni-	4.A\	.	4g\	-ni-	(4a\	-ni-	4.D\	.	4.A\	.	4g\	.	4a/	4g\	.	4.D/ 4.DD/	.	4.dd/	4.dd\	.	4a/	4g\	.	4gg\	.	4aa\	.
.	.	.	.	.	.	.	.	8f#/	.	8dd\	.	.	.	.	.	8f#\	.	8dd\	.	.	.	.	.	8f#\	.	8dd/	8f#\	.	.	.	.	.	.	8dd/	8f#\	.	8ff#\	.	8ddd\	.
=37	=37	=37	=37	=37	=37	=37	=37	=37	=37	=37	=37	=37	=37	=37	=37	=37	=37	=37	=37	=37	=37	=37	=37	=37	=37	=37	=37	=37	=37	=37	=37	=37	=37	=37	=37	=37	=37	=37	=37	=37
*	*	*	*	*	*	*	*	*	*	*	*	*	*	*	*	*	*	*	*	*^	*	*	*	*	*	*	*	*	*^	*	*	*	*	*	*	*	*	*	*	*
!LO:SIC:s=8c/	!	!	!	!	!	!	!	!	!	!	!	!	!	!	!	!	!	!	!	!	!	!	!	!	!	!	!	!	!	!	!	!	!	!	!	!	!	!	!	!	!	!
8Re\	.	8G\	.	8G\	.	8G/	.	8g/L	.	8g/L	.	4G\	-li.	4G/	.	4g\	-li.	4g/)	-li.	8G\	8GG\	.	8G/	.	8g\	.	8g/	8g\	.	8G\ 8GG\	8ryy	.	8g/	8g\	.	8g/	8g\	.	8gg\	.	8gg\	.
!	!	!	!LO:DY:b	!	!	!	!	!	!	!	!	!	!	!	!	!	!	!	!	!	!	!	!	!	!	!	!	!	!	!	!	!	!	!	!	!	!	!	!	!	!	!
.	.	.	p	.	.	.	.	.	.	.	.	.	.	.	.	.	.	.	.	.	.	.	.	.	.	.	.	.	.	.	.	.	.	.	p	.	.	.	.	.	.	.
!	!	!	!	!	!	!	!	!	!	!	!LO:DY:b	!	!	!	!	!	!	!	!	!	!	!	!	!	!	!	!	!	!	!	!	!	!	!	!	!	!	!	!	!	!	!
8r	.	4G\	.	16r	.	16r	.	16r	.	16r	p	.	.	.	.	.	.	.	.	8r	8ryy	.	8r	.	8r	.	8r	8ryy	.	16r	8rFF	.	4g/ 4G/	2ryy	.	16r	8r	.	16r	.	16r	.
.	.	.	.	(16B\LL	.	(16g\LL	.	(16g/L	.	(16g/L	.	.	.	.	.	.	.	.	.	.	.	.	.	.	.	.	.	.	.	16B\LL	.	.	.	.	.	16gg/LL	.	.	(16gg\LL	.	(16gg\LL	.
8r	.	.	.	16c\	.	16f#\	.	16f#/	.	16a/	.	8r	.	8r	.	8r	.	8r	.	8r	8ryy	.	8r	.	8r	.	8r	8ryy	.	16c\	8rFF	.	.	.	.	16ff#X/	8r	.	16ff#\	.	16aa\	.
.	.	.	.	16d\JJ)	.	16fn\JJ	.	16g/JJ)	.	16b/JJ	.	.	.	.	.	.	.	.	.	.	.	.	.	.	.	.	.	.	.	16d\JJ	.	.	.	.	.	16ffn/JJ	.	.	16gg\JJ)	.	16bb\JJ)	.
!	!	!LO:TX:a:t=P:problem:mixedbeam	!	!	!	!	!	!	!	!	!	!	!	!	!	!	!	!	!	!	!	!	!	!	!	!	!	!	!	!	!	!	!	!	!	!	!	!	!	!	!	!
4r	.	8G\L	.	4e\	.	4e\)	.	4g/	.	4cc\)	.	4r	.	4r	.	4r	.	4r	.	4r	4ryy	.	4r	.	4r	.	4r	4ryy	.	4e\	4rFF	.	4g/ 4G/	.	.	4ee/	4r	.	(4gg\	.	4.ccc\	.
.	.	8GG/J	.	.	.	.	.	.	.	.	.	.	.	.	.	.	.	.	.	.	.	.	.	.	.	.	.	.	.	.	.	.	.	.	.	.	.	.	.	.	.	.
8r	.	8G\	.	8e-X\	.	8f\	.	8a/	.	8cc\	.	8r	.	8r	.	8r	.	8r	.	8r	8ryy	.	8r	.	8r	.	8r	8ryy	.	8e-X\	8rFF	.	8g/ 8G/	8ryy	.	8ff#X/	8r	.	8aa\)	.	.	.
*	*	*	*	*	*	*	*	*	*	*	*	*	*	*	*	*	*	*	*	*v	*v	*	*	*	*	*	*v	*v	*	*	*	*	*v	*v	*	*	*	*	*	*	*	*
=38	=38	=38	=38	=38	=38	=38	=38	=38	=38	=38	=38	=38	=38	=38	=38	=38	=38	=38	=38	=38	=38	=38	=38	=38	=38	=38	=38	=38	=38	=38	=38	=38	=38	=38	=38	=38	=38	=38	=38
2.r	.	8G\	.	(4.d\	<	8g\L	.	8g/L	.	8b\L	<	2.r	.	2.r	.	2.r	.	2.r	.	4r	.	4r	.	4r	.	8r	.	4.d/	4rFF	.	8g/ 8G/	.	8gg/	4r	.	8gg\	.	8bb\	.
!	!	!	!LO:HP:b	!	!	!	!	!	!	!	!	!	!	!	!	!	!	!	!	!	!	!	!	!	!	!	!	!	!	!	!	!	!	!	!	!	!	!	!
.	.	4G\	<	.	.	16r	.	16r	.	16r	.	.	.	.	.	.	.	.	.	.	.	.	.	.	.	16r	.	.	.	.	4g/ 4G/	.	16r	.	.	16r	.	16r	.
.	.	.	.	.	.	(16g\L	.	(16g/L	.	(16b\L	.	.	.	.	.	.	.	.	.	.	.	.	.	.	.	(16b/LL 16g/	.	.	.	.	.	.	16gg/LL	.	.	(16gg\LL	.	(16bb\LL	<
.	.	.	.	.	.	16f#X\	.	16a/	.	16cc\	.	.	.	.	.	.	.	.	.	8r	.	8r	.	8r	.	16cc/ 16a/	.	.	8rFF	.	.	.	16ff#/	8r	.	16aa\	.	16ccc\	.
.	.	.	.	.	.	16fn\JJ	.	16b/JJ)	.	16dd\JJ	.	.	.	.	.	.	.	.	.	.	.	.	.	.	.	16dd/JJ 16b/)	.	.	.	.	.	.	16ffn/JJ	.	.	16bb\JJ	.	16ddd\JJ	.
!	!	!LO:TX:a:t=P:problem:mixedbeam	!	!	!	!	!	!	!	!	!	!	!	!	!	!	!	!	!	!	!	!	!	!	!	!	!	!	!	!	!	!LO:HP:a	!	!	!	!	!	!	!
.	.	8G\L	.	4e\	.	4e,\)	.	4cc\	.	4ee\)	.	.	.	.	.	.	.	.	.	4.G/ 4.GG/	.	4.c\	<[	4e\	.	4ee\ 4cc\	<	4e\	4G\	.	4g/ 4G/	<	4ee/	4r	.	4.ccc\)	.	4eee\	.
.	.	8GG/J	.	.	.	.	.	.	.	.	.	.	.	.	.	.	.	.	.	.	.	.	.	.	.	.	.	.	.	.	.	.	.	.	.	.	.	.	.
.	.	8G\	[[	8e-X\)	[[	8a\	.	8cc\	.	8ff#\	.	.	.	.	.	.	.	.	.	.	.	.	.	8f#\	.	8ff#\ 8cc\	.	8e-X\	8GG\	.	8g/ 8G/	[[	8aa/	8r	.	.	.	8fff#\)	[[
=39	=39	=39	=39	=39	=39	=39	=39	=39	=39	=39	=39	=39	=39	=39	=39	=39	=39	=39	=39	=39	=39	=39	=39	=39	=39	=39	=39	=39	=39	=39	=39	=39	=39	=39	=39	=39	=39	=39	=39
!LO:SIC:s=4.GT\	!	!	!LO:DY:b	!	!LO:DY:rj	!	!	!	!	!	!	!	!	!	!	!	!	!	!	!	!	!	!	!	!	!	!	!	!	!	!	!	!	!	!	!	!	!	!
4Re.\	>	4.G\	f	(4e-X\	f >	4.a\	.	4.cc\	.	(4.ff#\	[ f >	2.r	.	2.r	.	2.r	.	2.r	.	4.G/ 4.GG/	.	(4.c\	.	(4.f#\	.	4.ff#\ 4.cc\	.	(4e-X/	4.GG\	.	[>4.g/ [>4.G/	.	4.aa/	4ee-X\	.	4.ccc\	.	(4.fff#\	.
!	!	!	!LO:HP:b	!	!	!	!	!	!	!	!	!	!	!	!	!	!	!	!	!	!	!	!	!	!	!	!	!	!	!	!	!	!	!	!	!	!	!	!
.	.	.	>	8d\)	.	.	.	.	.	.	.	.	.	.	.	.	.	.	.	.	.	.	.	.	.	.	.	8d/)	.	.	.	.	.	8dd\	.	.	.	.	.
!LO:SIC:s=8G\	!	!	!	!	!	!	!	!	!	!	!	!	!	!	!	!	!	!	!	!	!	!	!	!	!	!	!	!	!	!	!	!	!	!	!	!	!	!	!
8Re\	.	8G\	.	8G\	.	8g\	.	8b\	.	8gg\)	.	.	.	.	.	.	.	.	.	8G/ 8GG/	.	8B\)	.	8g\)	.	8gg\ 8b\	[	8d\	8GG\	.	8g/] 8G/]	.	(8gg/	8dd\	.	8bb\	.	8ggg\)	.
8r	]	8r	]	8r	]	8r	.	4r	.	8r	]	.	.	.	.	.	.	.	.	8r	.	8r	.	8r	.	8r	.	8r	8ryy	.	8r	.	8rgg	8r	.	8r	.	8r	.
8r	.	8r	.	8r	.	8r	.	.	.	8r	.	.	.	.	.	.	.	.	.	8r	.	8r	.	8r	.	8r	.	8r	8ryy	.	8r	.	16gg/LL	8r	.	(16bb\LL	.	([8ddd\	.
.	.	.	.	.	.	.	.	.	.	.	.	.	.	.	.	.	.	.	.	.	.	.	.	.	.	.	.	.	.	.	.	.	16ff#/JJ	.	.	16aa\JJ	.	.	.
*	*	*	*	*	*	*	*	*	*	*	*	*	*	*	*	*	*	*	*	*	*	*	*	*	*	*	*	*v	*v	*	*	*	*	*	*	*	*	*	*
=40	=40	=40	=40	=40	=40	=40	=40	=40	=40	=40	=40	=40	=40	=40	=40	=40	=40	=40	=40	=40	=40	=40	=40	=40	=40	=40	=40	=40	=40	=40	=40	=40	=40	=40	=40	=40	=40	=40
2.r	.	2.r	.	2.r	.	2.r	.	2.r	.	2.r	.	2.r	.	2.r	.	2.r	.	2.r	.	2.r	.	2.r	.	2.r	.	2.r	.	2.r	.	2.r	.	4ee/)	4r	.	(4gg\)	.	8.ddd\L]	.
.	.	.	.	.	.	.	.	.	.	.	.	.	.	.	.	.	.	.	.	.	.	.	.	.	.	.	.	.	.	.	.	.	.	.	.	.	16ccc\L	.
.	.	.	.	.	.	.	.	.	.	.	.	.	.	.	.	.	.	.	.	.	.	.	.	.	.	.	.	.	.	.	.	16dd/LL	8r	.	16gg\LL	.	16bb\	.
.	.	.	.	.	.	.	.	.	.	.	.	.	.	.	.	.	.	.	.	.	.	.	.	.	.	.	.	.	.	.	.	16cc/JJ	.	.	16ff#\JJ	.	16aa\JJ	.
.	.	.	.	.	.	.	.	.	.	.	.	.	.	.	.	.	.	.	.	.	.	.	.	.	.	.	.	.	.	.	.	4dd/	4b\	.	4gg\)	.	4ddd\)	<
.	.	.	.	.	.	.	.	.	.	.	.	.	.	.	.	.	.	.	.	.	.	.	.	.	.	.	.	.	.	.	.	8dd#X/	8b\	.	8gg\	.	8ddd#X\	[[
!!LO:PB:g=original
=41	=41	=41	=41	=41	=41	=41	=41	=41	=41	=41	=41	=41	=41	=41	=41	=41	=41	=41	=41	=41	=41	=41	=41	=41	=41	=41	=41	=41	=41	=41	=41	=41	=41	=41	=41	=41	=41	=41
*	*	*	*	*	*	*	*	*	*	*	*	*	*	*	*	*	*	*	*	*	*	*	*	*	*	*^	*	*^	*	*^	*	*	*	*	*	*	*	*
2.r	.	4r	.	4r	.	4r	.	4r	.	4r	.	2.r	.	2.r	.	2.r	.	2.r	.	4r	.	4r	.	4r	.	4r	4ryy	.	4r	4ryy	.	4r	4ryy	.	(4ee/	4cc\	<	(4gg\	.	(4eee\	.
.	.	8r	.	8r	.	8r	.	8r	.	8r	.	.	.	.	.	.	.	.	.	8C#X^>/	.	8e^\	.	8g\	.	8ee^/	8a#X\	.	8G/	8C#X\	.	8ee/	8cc#X\	.	8ee/)	8cc#X\	.	8aa#X\)	.	8ggg\)	.
.	.	4.D\	.	8.d\L 8.B\	.	4.d\	.	8.b/L	.	8.dd\L	.	.	.	.	.	.	.	.	.	4D/	.	8.d\L	.	8.b\L	.	8.dd\L 8.b\	4.ryy	.	8.B/L	4D\	.	4dd/	4dd\	.	8.dd/L 8.b/	4.ryy	[	8.bb\L	.	8.ddd\L	.
.	.	.	.	16c\K 16A\	.	.	.	16a/K	.	16cc\K	.	.	.	.	.	.	.	.	.	.	.	16c\K	.	16a\K	.	16cc\K 16an\	.	.	16A/K	.	.	.	.	.	8ccn/ 8a/	.	.	16aa#\K	.	16ccc\K	.
.	.	.	.	8B\J 8G\	.	.	.	8g/J	.	8b\J	.	.	.	.	.	.	.	.	.	8D/	.	8B\J	.	8g\J	.	8b\J 8g\	.	.	8G/J	8D\	.	8dd/	8dd\	.	.	.	.	8gg\J	.	8bb\J	.
.	.	.	.	.	.	.	.	.	.	.	.	.	.	.	.	.	.	.	.	.	.	.	.	.	.	.	.	.	.	.	.	.	.	.	16b/Jk 16g/	.	.	.	.	.	.
=42	=42	=42	=42	=42	=42	=42	=42	=42	=42	=42	=42	=42	=42	=42	=42	=42	=42	=42	=42	=42	=42	=42	=42	=42	=42	=42	=42	=42	=42	=42	=42	=42	=42	=42	=42	=42	=42	=42	=42	=42	=42
!LO:SIC:s=4.GT\	!	!	!	!	!	!	!	!	!	!	!	!	!	!	!	!	!	!	!	!	!	!	!	!	!	!	!	!	!	!	!	!	!	!	!	!	!	!	!	!	!
4.Re\	.	4D\	.	4.A\ 4.D\	.	4d\	.	4g/	.	(4a/	.	2.r;	.	2.r;	.	2.r;	.	2.r;	.	4D/ 4DD/	.	4A/	.	4g\	.	4a/	4g\	.	4A/	4D\	.	4dd/	4dd\	.	4a/	4g\	.	4gg\	.	(4aa\	.
.	.	8D\	.	.	.	8d\	.	8f#/	.	8dd\	.	.	.	.	.	.	.	.	.	8D/ 8DD/	.	8A/	.	8f#\	.	8dd/	8f#\	.	8A/	8DD\	.	8dd/	8dd\	.	8dd/	8f#\	.	8ff#\	.	8ddd\)	.
!LO:SIC:s=4c/	!	!	!	!	!	!	!	!	!	!	!	!	!	!	!	!	!	!	!	!	!	!	!	!	!	!	!	!	!	!	!	!	!	!	!	!	!	!	!	!	!
4Re/	.	4G\	.	4G\	.	4g\	.	4g/	.	4g/)	.	.	.	.	.	.	.	.	.	4G/ 4GG/	.	4G/	.	4g\	.	4g/	4g\	.	4G\	4GG\	.	4g/	4g\	.	4g/	4g\	.	4gg\	.	4gg\	.
8r	.	8r;	.	8r;	.	8r;	.	8r;	.	8r;	.	.	.	.	.	.	.	.	.	8r;	.	8r;	.	8r;	.	8r;	8ryy	.	8r;	8ryy	.	8r;	8ryy	.	8r;	8ryy	.	8r;	.	8r;	.
*	*	*	*	*	*	*	*	*	*	*	*	*	*	*	*	*	*	*	*	*	*	*	*	*	*	*v	*v	*	*	*	*	*v	*v	*	*v	*v	*	*	*	*	*
*	*	*	*	*	*	*	*	*	*	*	*	*	*	*	*	*	*	*	*	*	*	*	*	*	*	*	*	*v	*v	*	*	*	*	*	*	*	*	*
==	==	==	==	==	==	==	==	==	==	==	==	==	==	==	==	==	==	==	==	==	==	==	==	==	==	==	==	==	==	==	==	==	==	==	==	==	==
*-	*-	*-	*-	*-	*-	*-	*-	*-	*-	*-	*-	*-	*-	*-	*-	*-	*-	*-	*-	*-	*-	*-	*-	*-	*-	*-	*-	*-	*-	*-	*-	*-	*-	*-	*-	*-	*-
!!!system-decoration: [({s1,s2,s3}s4,s5,s6{s7,s8,s9}{s10,s11,s12,s13})({s14,s15,s16}{s17,s18}s19)]
!!!RDF**kern: > = above
!!!RDF**kern: < = below
!!!EED: Leszek Kubiak
!!!EST: 2021-04-29
!!!ENC:Berenika Jozajtis
!!!END:2021-04-12
